X:1
T:Flute Sonata in B minor
T:BWV 1030
T:J. S. Bach
%%score { 1 | ( 2 3 ) } { ( 4 6 8 9 ) | ( 5 7 ) }
L:1/8
Q:1/4=80
M:4/4
K:D
V:1 treble nm="ハープ"
V:2 bass 
V:3 bass 
V:4 treble nm="ハープ"
V:6 treble 
V:8 treble 
V:9 treble 
V:5 bass 
V:7 bass 
V:1
"^Andante" z B | ff- fe/4f/4g/ ff- fe/4f/4g/ | fgfe dc/d/ B z | z8 | z4 z2 z B | %5
 ff- fe/4f/4g/ ff- fe/4f/4g/ | fgfe dc/d/ Bf | gggg ge'-e'g | ffff fd'- d'/c'/b/a/ | %9
 ^g=gf=f eG F/^A/c/e/ | d>e f/4e/4f/4e/4f/4e/4d/4e/4 f2 z e | ^d/f/=c- c/B/a/4g/4f/ fg z =d | %12
 c/e/^G- G/A/g/4f/4e/ ef z B | =c^deg ^ad'c'e | dc/B/ d/c/B/^A/ B2 z c | dgfb =f^f z b | %16
 ^ad'c'e' gf z f | d'd'd'd' d'/4c'/4b/{b}c'-{b} c'e | =c'c'c'c' c'/4b/4^a/{a}b-{a} bd- | %19
 d/c/c/=c/ c/B/B/^A/ A/g/g/f/ f/^a/a/b/ | Bg/f/ e/d/c/B/ B2 z f | %21
 d'/4c'/4b/{b}c'- c'/b/4c'/4d'/4c'/4b/4^a/4 b/4a/4^g/f- f/g/4a/4b/c'/ | %22
 d'/4c'/4b/{b}c'- c'/b/4c'/4d'/4c'/4b/4^a/4 bB (3z/ B/c/(3d/e/f/ | %23
 g/B/A/f/ G/e/^G/d/ (d/4c/4B/){B}c- (3c/A/B/(3c/d/e/ | %24
 f/A/G/e/ F/d/A/=c/ c/4B/4^A/{A}B- (3B/G/=A/(3B/^c/d/ | %25
 (3e/g/f/ (3e/d/c/ (3B/^A/B/ (3c/d/e/ (3f/d/e/ (3f/^g/^a/ (3b/f/g/ (3a/b/c'/ | %26
 (3d'/e'/d'/(3c'/b/a/ (3g/a/g/(3f/e/d/ c/a/d/g/ fe/>d/ | d z2 z z/ d'/e'/g/ f z | %28
 z4 z/ f/a/c/ d z | z8 | z8 | z8 | z4 z2 z f | c'c'- c'b/4c'/4d'/ c'c'- c'b/4c'/4d'/ | %34
 c'd'c'b a^g/a/ f/c/d/f/ | =c/^g/g/^c/ c/B/^A/B/ A/f/f/B/ Bb | %36
 c'/4b/4c'/4b/4^a z =a b/4a/4b/4a/4^g z =g | f^abB =f^g c/B/A/^G/ | %38
 A/f/B/=f/ ^f/c/^g/B/ A/f/B/=f/ ^f/c/g/B/ | A/f/B/^g/ A/f/^G/^e/{e} f2- f/=e/^d/c/ | %40
 ^ddd=d db (3b/a/^g/(3f/e/d/ | ccc=c ca- (3a/g/f/(3e/d/c/ | (3B/^A/B/(3c/B/A/ Bb ^a=a^g=g | %43
 fA^Ge- e/d/4c/4d/e/ f/4e/4f/4e/4f/4e/4d/4e/4 | f2 z f =f/^g/d- d/c/b/4a/4g/ | %45
 ^g/a/ z4 d- (3d/c/e/_B- | B/A/g/4f/4e/ e/f/b ^a/c'/g- g/f/e'/4d'/4c'/ | %47
 c'/d'/ z z2 z g-(3g/f/a/_e- | e/d/=c'/4b/4a/ a/b/ z z4 | z2 z F G^ABd | =fa^gB A^G/F/ A/G/F/^E/ | %51
 F2 z =c f=f z b | ad'c'f' =c'^c' z2 | z2 z c a/4^g/4f/{f}g- g/f/4g/4a/4g/4f/4^e/4 | %54
 f/4e/4d/c- c/^d/4^e/4f/^g/ a/4g/4f/{f}g- g/f/4g/4a/4g/4f/4=f/4 | fF z f d'd'd'd' | %56
 d'/4c'/4b/{b}c'-{b} c'e =c'c'c'c' | =c'/4b/4^a/{a}b-{a} bB- (3B/=A/^G/ f/^e/ f/^g/4=a/4g/B/ | %58
 A/^G/4F/4G/f/ ^e>f f2 z ^g | %59
 (3a/c'/a/(3a/f/^g/ (3a/c'/a/(3a/f/g/ (3a/=c'/a/(3a/=g/f/ (3e/^d/e/(3f/g/a/ | %60
 (3g/b/g/(3g/e/f/ (3g/b/g/(3g/e/f/ (3g/b/a/(3g/f/e/ (3d/c/d/(3e/f/g/ | %61
 (3f/a/g/(3f/e/d/ (3c/B/^A/(3B/c/d/ (3e/g/f/(3e/d/c/ (3B/A/B/(3c/d/e/ | %62
 (3d/c/d/(3e/f/g/ (3g/e/f/(3g/a/b/ (3=c'/d'/c'/(3b/a/g/ (3f/e/d/(3=c/B/A/ | %63
 B/g/=c/f/ g/d/a/c/ B/g/c/f/ g/d/a/c/ | b/g/=c/a/ B/g/A/f/ gd- (3d/d'/=c'/(3b/a/g/ | fad'a z d=fb | %66
 z g=c'g z =cea | z d'=c'b z c'ba | z bge z af^d | bb- ba/4b/4=c'/ bb- ba/4b/4c'/ | %70
 b=c'ba gf/g/ e z | (3z/ =c/d/(3e/f/g/ Aa- (3a/f/g/(3a/b/=c'/ dd'- | %72
 (3d'/B/=c/(3d/e/f/ Gg- (3g/e/f/(3g/a/b/ c=c'- | %73
 (3c'/A/B/(3=c/d/e/ (3F/^d/e/(3f/g/a/ (3G/e/f/(3a/b/=c'/ (3d/B/^c/(3d/e/f/ | %74
 g/4f/4e/f- f/e/4f/4g/4f/4e/4^d/4 e/4d/4c/B- B/c/4d/4e/f/ | %75
 g/4f/4e/f- f/e/4f/4g/4f/4e/4^d/4 eaa=c' | ^ab z2 z BAd | B=c z2 z edg | e=f^de ^abe=d | %79
 c'/4b/4c'/4b/4c'/4b/4c'/4b/4 c'/4b/4c'/4b/4c'/4b/4c'/4b/4 (3^a/c'/b/(3a/^g/f/ (3e/=g/f/(3e/d/c/ | %80
 d/b/e/^a/ b/f/c'/e/ d/b/e/a/ b/f/c'/e/ | d/b/e/c'/ d/b/c/^a/ b/f/e/f/ d z | z4 z2 z/ B/=c/d/ | %83
 ^A/f/f/B/ B/=A/^G/A/ G/e/e/A/ Aa | b/4a/4b/4a/4^g z =g a/4g/4a/4g/4f z F | %85
 ff- fe/4f/4g/ ff- fe/4f/4g/ | fgfe e/4d/4e/4d/4c/d/ B2- | Be- e/d/c/B/ ccc=c | %88
 =ca- (3a/g/f/(3e/d/=c/ BBBB | Bg- (3g/f/e/(3d/=c/B/ (3A/^G/A/(3B/A/=G/ Aa | ^g=gf=f eGFe- | %91
 e/d/4c/4d/e/ g/4f/4g/4f/4g/4f/4d/4e/4 fb ^a/c'/g- | %92
 g/f/e'/4d'/4c'/ c'/d'/g- (3g/f/a/_e- e/d/(=c'/4b/4a/) | a/b/ z z2 z e ^d/f/=c- | %94
 c/B/a/4g/4f/ f/g/=c- (3c/B/d/_A- A/G/=f/4e/4d/ | d/e/ z z e =f^ga=c' | ^d'g'f'a gf/e/ g/f/e/^d/ | %97
 e z z2 z2 z (e | d)gfb ^ef z2 | z2 z ^e b^a z f | %100
 d'/4c'/4b/c'- c'/b/4c'/4d'/4c'/4b/4^a/4 b/4a/4^g/f- f/g/4a/4b/c'/ | %101
 d'/4c'/4b/c'- c'/b/4c'/4d'/4c'/4b/4^a/4 bB z f | %102
 (3d/B/c/(3d/e/f/ (3g/a/b/(3a/g/f/ (3e/c/d/(3e/f/^g/ (3^a/b/c'/(3b/a/g/ | fb z d' ag' z e' | %104
 af' z d' ge' z c' | (3f/d'/c'/(3b/a/g/ (3f/e/^d/(3e/f/g/ (3a/=c'/b/(3a/g/f/ (3e/d/c/(3d/e/f/ | %106
 Gg- (3g/e/f/(3g/a/b/ c'c- (3c/A/B/(3c/d/e/ | Ff- (3f/d/e/(3f/^g/^a/ bB- (3B/=G/=A/(3B/c/d/ | %108
 (3G/c/d/(3e/f/g/ (3g/f/^g/(3^a/b/c'/ (3c'/c/d/(3e/f/=g/ (3g/f/^g/(3a/b/c'/ | %109
 d'd'd'd' (3f'/=e'/d'/(3c'/b/a/ (3g/f/e/(3^d/e/g/ | =c'c'c'c' c'/4b/4^a/{a}b-{a} bd- | %111
 d/c/c/=c/ c/B/B/^A/ A/g/g/f/ f/^a/a/b/ | b>c' ^a>b b4- | (3b/^a/^g/(3a/g/f/ =g=c' ab z2 | %114
 z d'c'f' ^d'e' z2 | z gfb ^ab=f^f | B2 z B gggg | g/4f/4e/{e}f-{e} fA ffff | %118
 f/4e/4^d/{d}e-{d} ee'- e'/c'/^a/b/ b/c'/4d'/4c'/e/ | d/c/4B/4c/b/ a>b b3 z | z8 | %121
[M:6/8][Q:1/4=48]"^Largo e dolce" d>fa{=c'} ba z | %122
{d} ^c/4B/4c/- c/4d/4e/- e/4f/4g/{g} f/4e/4d/ d2 | d>fa{ab} =c'b z | %124
{e} ^d/4c/4d/- d/4e/4f/- f/4g/4A,/{a} g/4f/4e/ e2 | g/ggg/- g/A/4B/4 c/4d/4e/4f/4 g/4f/4g/4e/4 | %126
 f/4^g/4f/4g/4a/4g/4a/4g/4a/4g/4a/ a-a/4g/4a/4b/4a/4g/4f/4e/4 | %127
 d/4c/4d/- d/-d/- d/4e/4d/4c/4 d/b/- b/4d'/4c'/4b/4 a/4^g/4f/4e/4 | a/c/{c}d{c} B/4A/4B/ A3 | %129
 d>fa{=c'} ba z |{d} ^c/4B/4c/- c/4d/4e/- e/4f/4g/{g} f/4e/4d/ d2 | d>fa{ab} =c'b z | %132
{e} ^d/4c/4d/- d/4e/4f/- f/4g/4a/{a} g/4f/4e/ e2 | g/ggg/- g/A/4B/4 c/4d/4e/4f/4 g/4f/4g/4e/4 | %134
 f/4^g/4f/4g/4a/4g/4a/4g/4a/4g/4a/ a-a/4g/4a/4b/4a/4g/4f/4e/4 | %135
 d/4c/4d/- d/-d/- d/4e/4d/4c/4 d/b/- b/4d'/4c'/4b/4 a/4^g/4f/4e/4 | a/c/{c}d{c} B/4A/4B/ A3 | %137
 A>ce{ef} gf z | ^A/4g/4f/4e/4{e} c'/>b/ ^a/4g/4f/4e/4 d/4c/4d/4c/4 B2 | %139
 g/4a/4g/4f/4 g/4f/4=f/4^f/4 f/d'/ d'/4=c'/4b/4c'/4 c'/4b/4^a/4b/4 a/g'/ | %140
 f'/4d'/4c'/4b/4 d'd'/4c'/4b/ b2 z | ^g/ggg/- g/4b/4a/4g/4 a/4g/4f/4e/4 d/4c/4B/4A/4 | %142
 d/4e/4f/- f/4g/4a/- a/4=c'/4b/4a/4 d'/4b/4c'/4a/4 g2 | e'/c'^ag/- g/e d/4c/4 d/4c/4B/4A/4 | %144
 ag/f/e/4g/4f/{e} d3 | A>ce{ef} gf z | ^A/4g/4f/4e/4{e} c'/>b/ ^a/4g/4f/4e/4 d/4c/4d/4c/4 B2 | %147
 g/4a/4g/4f/4 g/4f/4=f/4^f/4 f/d'/ d'/4=c'/4b/4c'/4 c'/4b/4^a/4b/4 a/g'/ | %148
 f'/4d'/4c'/4b/4 d'd'/4c'/4b/ b2 z | ^g/ggg/- g/4b/4a/4g/4 a/4g/4f/4e/4 d/4c/4B/4A/4 | %150
 d/4e/4f/- f/4g/4a/- a/4=c'/4b/4a/4 d'/4b/4c'/4a/4 g2 | e'/c'^ag/- g/e d/4c/4 d/4c/4B/4A/4 | %152
 ag/f/e/4g/4f/{e} d3 | z6 |[M:2/2]"^Presto"[Q:1/4=180] B4 d4 | c2 g2 f2 B2 | ^A2 e2 d2 B2 | %157
 c2 F2 z2 F2 | G2 ^d2 e2 ^G2 | A2 =f2 ^f2 ^A2 | B2{cd} e2 d2 c2 | dcBc def^g | abab c'd'c'd' | %163
 bc'bc' abab | ^gaga fgfg | ^efe^d cBA^G | Fgfe dcBA | ^Ga^gf edcB | A2 d2 c2 =f2 | f2 a4 a2- | %170
 a2 gf g2 c'2- | c'2 b4 b2- | b2 ^a^g a2 e'2- | e'2 d'c' b4- | b2 ^a2 z2 g2- | g2 ^A2 B2 d2 | %176
 e2 c2 ^A4 | B8 | c8- | cB^AB cdec | dcBc defd | edcd efge | f2 a2 d4- | d2 b2 e4- | e2 ab c'4- | %185
 c'2 bc' d'4- | d'2 c'b a^gf^e | f4 a4 | ^g2 d'2 c'2 f2 | =f2 b2 a2 ^f2 | ^g2 c2 z2 c2 | %191
 d2 ^a2 b2 ^d2 | e2 ^b2 c'2 ^e2 | f2 ^g/a/b a2 g2 | a^gfg abc'd' | e'f'e'd' c'bag | fede f^g^ab | %197
 c'd'c'b ^a^gfe | dcBc defg | abag fed=c | B2 ef g4- | gefg a4- | afga b4- | b2 =c'b agfe | %204
 ^dedc BAGF | GBc^d efge | abab gaga | fgfg efef | ^de'^d'c' bagf | e8- | egfe ^dcBA | %211
 G2 =c2 B2 ^d2 | e2 g2 =c4- | c2 a2 d4- | d=cBc de=fd | ed=cd efge | f4 z2 d2 | g6 e2 | %218
 ^a2 c'2 f4- | fede fgfg | efef dede | cdcd BcBc | ^Ab^a^g fedc | B=c'ba gfed | cd'c'b agfe | %225
 d2 g2 f2 ^a2 | bc' d'4 d'2- | d'2 =c'b c'4 | z2 b4 b2- | b2 ag a4 | z2 g4 g2- | g2 fe c'2 e2 | %232
 dcde f^gaf | ^gfef g^abg | ^a^gfg abc'a | b^abd' c'bab | !fermata!^a8 | %237
[M:1/16]"^Allegro"[Q:1/4=120] F/ |[M:12/16] B/d/c/- c/G/F/- F/e/d/- d/A/^G/- | %239
 G/f/e/- e/B/^A/- A/=g/f/ z/ A/B/ | g/^A/B/ f/A/B/ e/A/B/ d/A/B/ | c/e/g/ e/c/B/ ^A/c/f/ e/d/c/ | %242
 d/B/F/ ^A/c/e/ d/c/B/ bd/ | e/d/c/ c'e/ f/e/d/ d'f/ | e/f/g/ f/e/d/ ce'/ Bd'/ | %245
 ec'/ ^ab/{b} c'3/2- c'f/ | f/b/d'/ ^a/b/f/ g3/2 z e/ | e/a/c'/ ^g/a/e/{e} f3/2 z d/ | %248
 d/c/d/ b/a/g/ d/c/d/ a/g/f/ | d/c/d/ g/f/e/ d/c/d/ f/e/d/ | e/g/b/ a/g/f/ e/d/c/ B/A/G/ | %251
 Fa/ A/d/c/ d/A/d/ f/d/f/ | a/f/d/ a3/2- a/d/g/ b3/2- | b/^g/e/ b3/2- b/e/a/ c'3/2- | %254
 c'/^a/f/ c'3/2- c'/f/b/ d'3/2- | d'/b/^g/ f/^e/f/ c'g/{f} e z/ | z3/2 z B/ A/^G/F/ d/c/B/ | %257
 B/A/^G/ ^g/a/b/ c'/^e/f/ F z/ | z6 | z3 z3/2 z c/ | f/a/^g/- g/d/c/- c/b/a/ z/ e/^d/- | %261
 d/c'/b/- b/f/^e/ e/d'/c'/ z/ e/f/ | d'/^e/f/ c'/e/f/ b/e/f/ a/e/f/ | %263
 ^g/b/d'/ b/g/f/ ^e/g/c'/ b/a/g/ |{^g} a3/2 z f/ f/b/d'/ ^a/b/f/ |{f} ^g3/2 z e/ e/a/c'/ g/a/^e/ | %266
 d'd/ fb/ c'c/ fa/ | bd'/ fd'/ ac'/ fc'/ | db/ =f^f/ ^e/^d/c/ ^g3/2- | g/^e/f/ A/B/^G/ F3/2- FF/ | %270
 B/d/c/- c/G/F/- F/e/d/- d/A/^G/- | G/f/e/- e/B/^A/- A/=g/f/ z/ A/B/ | %272
 g/^A/B/ f/A/B/ e/A/B/ d/A/B/ | c/e/g/ e/c/B/ ^A/c/f/ e/d/c/ | d/B/F/ ^A/c/e/ d/c/B/ bd/ | %275
 e/d/c/ c'e/ f/e/d/ d'f/ | e/f/g/ f/e/d/ ce'/ Bd'/ | ec'/ ^ab/{b} c'3/2- c'f/ | %278
 f/b/d'/ ^a/b/f/ g3/2 z e/ | e/a/c'/ ^g/a/e/{e} f3/2 z d/ | d/c/d/ b/a/g/ d/c/d/ a/g/f/ | %281
 d/c/d/ g/f/e/ d/c/d/ f/e/d/ | e/g/b/ a/g/f/ e/d/c/ B/A/G/ | Fa/ A/d/c/ d/A/d/ f/d/f/ | %284
 a/f/d/ a3/2- a/d/g/ b3/2- | b/^g/e/ b3/2- b/e/a/ c'3/2- | c'/^a/f/ c'3/2- c'/f/b/ d'3/2- | %287
 d'/b/^g/ f/^e/f/ c'g/{f} e z/ | z3/2 z B/ A/^G/F/ d/c/B/ | B/A/^G/ ^g/a/b/ c'/^e/f/ F z/ | z6 | %291
 z3 z3/2 z c/ | f/a/^g/- g/d/c/- c/b/a/ z/ e/^d/- | d/c'/b/- b/f/^e/ e/d'/c'/ z/ e/f/ | %294
 d'/^e/f/ c'/e/f/ b/e/f/ a/e/f/ | ^g/b/d'/ b/g/f/ ^e/g/c'/ b/a/g/ |{^g} a3/2 z f/ f/b/d'/ ^a/b/f/ | %297
{f} ^g3/2 z e/ e/a/c'/ g/a/^e/ | d'd/ fb/ c'c/ fa/ | bd'/ fd'/ ac'/ fc'/ | %300
 db/ =f^f/ ^e/^d/c/ ^g3/2- | g/^e/f/ A/B/^G/ F3/2- F c'/ | e3/2 e/d/c/ d3/2- d/c/B/ | %303
 c3/2- c/B/^A/ B3/2 z b/ | ^d'/f'/=c'/- c'/b/^a/ b/f'/b/- b/=a/^g/ | a/f'/a/ a/g/f/ g/a/b/ e/g/B/ | %306
 =c/=f/e f/^d/e/a/ ga/^f/ | g/=c'/b/- b/c'/^a/ c'/4b/4c'/4b/4c'/4b/4 c'/4b/4c'/4b/4c'/4b/4 | %308
 =c'/4b/4c'/4b/4c'/4b/4 c'/4b/4c'/4b/4c'/4b/4 c'/4b/4c'/4b/4c'/4b/4 c'/4b/4c'/4b/4c'/4b/4 | %309
 =c'/4b/4c'/4b/4c'/4b/4 c'/4b/4c'/4b/4c'/4b/4 c'/4b/4c'/4b/4c'/4b/4 c'/4b/4c'/4b/4c'/4b/4 | %310
 =c'/4b/4c'/4b/4 a/ b/4a/4b/4a/4 ^g/ e'/c'/a/ =g/a/f/ | b/c/d/ a/c/d/ g3/2 z3/2 | z6 | %313
 z3 z3/2 z d/ | g/b/a/- a/e/d/- d/=c'/b/- b/=f/e/- | e/d'/=c'/- c'/g/f/- f/e'/d'/ z/ f/g/ | %316
 e'/f/g/ d'/f/g/ =c'/^d/e/ b/d/e/ | ^a/^d/e/ b/d/e/ c'/d/e/ g/f/e/ | %318
 ^d/f/=c/- c/B/^A/ B/f/B/- B/=A/^G/ | A/f/A/- A/G/F/ G/B/e/ g/f/e/ | %320
 e'3/2- e'/d'/c'/ d'3/2- d'/c'/b/ | c'3/2- c'/b/^a/ b3/2- b/B/=a/ | g/b/e/ d/c/B/ c/A/c/ e/f/g/ | %323
 f/a/d/ =c/B/A/ B/G/B/ d/e/f/ | e/g/c/ B/^A/G/ A/F/A/ c/^e/f/ | B/^G/B/ d/^e/f/ cc'/ ^a=e/ | %326
 dd'/ bf/ ee'/ c'^a/ | fb/ df/ ^A3/2 z f/ | =f/d'/c'/- c'/^f/^e/ e/b/^a/- a/=e/d/ | %329
 c z/ d z/ c z/ a/=c/B/- | B/^A/B/ g/f/e/ B/A/B/ f/e/d/ | B/^A/B/ e/d/c/ B/A/B/ d/c/B/ | %332
 c/e/g/ f/e/d/ c/B/^A/ g/f/e/ | df'/ f/b/^a/ b3/2- !fermata!b c'/ | e3/2 e/d/c/ d3/2- d/c/B/ | %335
 c3/2- c/B/^A/ B3/2 z b/ | ^d'/f'/=c'/- c'/b/^a/ b/f'/b/- b/=a/^g/ | a/f'/a/ a/g/f/ g/a/b/ e/g/B/ | %338
 =c/=f/e f/^d/e/a/ ga/^f/ | g/=c'/b/- b/c'/^a/ c'/4b/4c'/4b/4c'/4b/4 c'/4b/4c'/4b/4c'/4b/4 | %340
 =c'/4b/4c'/4b/4c'/4b/4 c'/4b/4c'/4b/4c'/4b/4 c'/4b/4c'/4b/4c'/4b/4 c'/4b/4c'/4b/4c'/4b/4 | %341
 =c'/4b/4c'/4b/4c'/4b/4 c'/4b/4c'/4b/4c'/4b/4 c'/4b/4c'/4b/4c'/4b/4 c'/4b/4c'/4b/4c'/4b/4 | %342
 =c'/4b/4c'/4b/4 a/ b/4a/4b/4a/4 ^g/ e'/c'/a/ =g/a/f/ | b/c/d/ a/c/d/ g3/2 z3/2 | z6 | %345
 z3 z3/2 z d/ | g/b/a/- a/e/d/- d/=c'/b/- b/=f/e/- | e/d'/=c'/- c'/g/f/- f/e'/d'/ z/ f/g/ | %348
 e'/f/g/ d'/f/g/ =c'/^d/e/ b/d/e/ | ^a/^d/e/ b/d/e/ c'/d/e/ g/f/e/ | %350
 ^d/f/=c/- c/B/^A/ B/f/B/- B/=A/^G/ | A/f/A/- A/G/F/ G/B/e/ g/f/e/ | %352
 e'3/2- e'/d'/c'/ d'3/2- d'/c'/b/ | c'3/2- c'/b/^a/ b3/2- b/B/=a/ | g/b/e/ d/c/B/ c/A/c/ e/f/g/ | %355
 f/a/d/ =c/B/A/ B/G/B/ d/e/f/ | e/g/c/ B/^A/G/ A/F/A/ c/^e/f/ | B/^G/B/ d/^e/f/ cc'/ ^a=e/ | %358
 dd'/ bf/ ee'/ c'^a/ | fb/ df/ ^A3/2 z f/ | =f/d'/c'/- c'/^f/^e/ e/b/^a/- a/=e/d/ | %361
 c z/ d z/ c z/ a/=c/B/- | B/^A/B/ g/f/e/ B/A/B/ f/e/d/ | B/^A/B/ e/d/c/ B/A/B/ d/c/B/ | %364
 c/e/g/ f/e/d/ c/B/^A/ g/f/e/ | df'/ f/b/^a/ b3/2- !fermata!b z/ |] %366
V:2
 z2 | B,CD^A, B,CDA, | B,E,F,F,, B,,2 z B, | B,^A, z =A, A,^G, z =G, | G,F,E,G, F,^G,^A,B, | %5
 B,,C,D,^A,, B,,C,D,A,, | B,,E,F,F,, B,,2 z/ B,/A,/B,/ | E,E,, z E,, A,,2 z/ A,/G,/A,/ | %8
 D,D,, z D,, G,,2 z B,, | E, z D, z ^A,, z2 F, | B,A,G,G,, F,,F,^A,F, | B,B,,B,,B,, E,,E,G,E, | %12
 A,A,,A,,A,, D,,D,C,D, | E,F,G,E, F,^G,^A,F, | B,G,E,F, B,,B,B,^A, | B,B,,A,,G,, F,,2 z2 | %16
 z/ B,/B,/^A,/ A,/B,/B,/A,/ A,2 z F, | B,>C B,/A,/G,/F,/ E,>^D, E,/F,/G,/E,/ | %18
 A,>B, A,/G,/F,/E,/ D,>C, D,/E,/F,/D,/ | G,G,,G,,G,, F,,E,D,F, | G,E,F,F,, B,,B,,,D,,F,, | %21
 B,,E,F,E, D,E,D,C, | B,,E,F,F,, B,,B,/C/ DB, | EE, z E,, A,,A,/B,/ CA, | %24
 DD, z D,, G,,G,/F,/ E,D, | C,E,F,E, D,E,D,C, | B,,D,E,G,- G,F,/G,/ A,2 | D z4 z2 z | %28
 B,G,A,A,, D,F,/E,/ F,D, | G,F,E,E,, A,,^G,,F,,F, | B,A,^G,F, G,C,^E,C, | F,F,, z B,, E,E,, z A,, | %32
 D,D,, z ^G,, C,B,,A,,G,, | F,,^G,,A,,E,, F,,G,,A,,E,, | F,,B,,C,C,, F,,2 z F, | %35
 ^F,/4^E,/4^F,/4^E,/4E, z =E, F,/4E,/4F,/4E,/4^D, z =D, | C,F,^A,F, B,E, D/4C/4B,/C/E/ | %37
 ^A,/F/F/B,/ B,/=A,/^G,/A,/ G,/^E/E/B,/ A,/^G,/F,/^E,/ | F,^G,A,=F, ^F,G,A,=F, | %39
 F,B,CC, F,^G,A,F, | B,/A,/^G,/F,/ G,B, E,/D,/C,/B,,/ C,E, | %41
 A,/G,/F,/E,/ F,A, D,/=C,/B,,/A,,/ B,,D, | G,F, G,/F,/E,/D,/ C,=C, (3B,,/^A,,/B,,/(3^C,/B,,/A,,/ | %43
 B,,/F,,/F,,/^E,,/ E,,/E,/E,/F,/ G,/B,,/B,,/A,,/ A,,/G,,/G,,/F,,/ | %44
 F,,/F,/F,/E,/ E,/D,/D,/C,/ C,2 z ^E, | F,^E,F,=F, =E,G,,A,,C, | D,C,D,G, C,E,F,^A, | %47
 B,^A,B,A, =A,=C,D,F, | G,F, G,/^G,/G,/A,/ A,/=G,/G,/F,/ G,/F,/F,/E,/ | %49
 F,/^G,/G,/^A,/ A,/B,/B,/A,/ B,=G,E,F, | ^G,/F,/F,/^E,/ E,/F,/F,/E,/ F,D,B,,C, | %51
 F,,/F,/F,/E,/ E,/D,/D,/C,/ C,/B,/B,/A,/ A,/^G,/G,/F,/ | %52
 F,/F/F/E/ E/D/D/C/ C/B,/B,/A,/ A,/^G,/G,/F,/ | F,^E,/^D,/ E,C, C,,E,/D,/ E,C, | %54
 C,,^E,/^D,/ E,C, A,,B,,C,C,, | F,,F,/^G,/ F,/E,/D,/C,/ B,,>A,, B,,/C,/D,/B,,/ | %56
 E,,E,/F,/ E,/D,/C,/B,,/ A,,>^G,, A,,/B,,/=C,/A,,/ | F,D,,D,,D,, C,,^G,A,C | DB,CC, F,F,,A,,C, | %59
 F,F,E,E, ^D,D,B,,B,, | E,E,D,D, C,C,A,,A,, | D,D,G,G, C,C,F,F, | B,,B,,E,E, A,,A,,D,D, | %63
 G,A,B,F, G,A,B,F, | G,=CDD, G,,A,,B,,=C, | D,D,=C,C, B,,B,,G,,G,, | =C,C,B,,B,, A,,A,,=F,,F,, | %67
 B,,B,,E,E, A,,A,,D,D, | G,,G,,=C,C, F,,F,,B,,B,, | E,F,G,^D, E,F,G,D, | E,A,,B,,B,, E,,2 z E, | %71
 A,G,F,E, D,=C,B,,A,, | G,F,E,D, =C,B,,A,,G,, | F,E,^D,C, B,,A,,G,,F,, | %74
 E,,B,,/C,/ ^D,B,, B,,,D,/C,/ D,B,, | B,,,^D,/C,/ D,B,, E,,E,/D,/ E,E,, | %76
 B,,, z/ B,/ B,/A,/A,/G,/ A,/G,/G,/F,/ G,/F,/F,/E,/ | %77
 F,/E,/E,/^D,/ E,/=D,/D,/C,/ D,/=C,/C,/B,,/ C,/B,,/B,,/A,,/ | %78
 B,,/A,,/A,,/^G,,/ A,,/=G,,/G,,/F,,/ G,,/F,,/F,,/G,,/ G,,/F,,/F,,/E,,/ | ^E,,4 F,,2 z B,, | %80
 B,CD^A, B,CDA, | B,E,F,F,, B,,2 z B, | C/4B,/4C/4B,/4^A, z =A, B,/4A,/4B,/4A,/4^G, z =G, | %83
 F,B,,^D,B,, E,A,/G,/ F,/E,/F,/A,/ | ^D,/B,/B,/E,/ E,/=D,/C,/D,/ C,/^A,/A,/E,/ D,/C,/B,,/^A,,/ | %85
 B,,C,D,^A,, B,,C,D,A,, | B,,E,F,F,, B,,C,D,B,, | E,/D,/C,/B,,/ C,E, A,/G,/F,/E,/ F,A, | %88
 D,/=C,/B,,/A,,/ B,,D, G,/=F,/E,/D,/ E,G, | =C,B,, C,/E,/A,/G,/ F,=F, (3E,/^D,/E,/(3^F,/E,/D,/ | %90
 E,/B,/B,/^A,/ A,/=A,/A,/B,/ =C/E,/E,/D,/ D,/=C,/C,/B,,/ | B,,/B,/B,/A,/ A,/G,/G,/F,/ F,2 z ^A, | %92
 B,^A,B,_B, =A,=C,D,F, | G,F,G,=C F,A,B,,^D, | E,^D,E,D, =D,=F,G,,B,, | %95
 =C,B,,C,^C, D,/=C,/C,/B,,/ C,/B,,/B,,/A,,/ | B,,/A,,/A,,/G,,/ A,,/E,/E,/^D,/ E,=C,A,,B,, | %97
 C,/B,/B,/^A,/ A,/B,/B,/A,/ B,G,E,F, | %98
 B,/B,,/B,,/A,,/ A,,/G,,/G,,/F,,/ F,,/E,/E,/D,/ D,/C,/C,/B,,/ | %99
 B,,/B,/B,/A,/ A,/G,/G,/F,/ F,/E/E/D/ D/C/C/B,/ | B,^A,/^G,/ A,F, F,,A,/G,/ A,F, | %101
 F,,^A,/^G,/ A,F, D,=G,/F,/ E,F, | B,, z E, z C, z F, z | D, z B,, z C, z C z | %104
 D z D, z D, z C, z | B,,B,=CB, A,F,B,,B, | EDCB, A,G,F,E, | DCB,A, G,F,E,D, | CB,^A,^G, F,E,D,C, | %109
 B,,2 z B,, E,2 z E, | A,,2 z A,, D,2 z D, | G,,G,,G,,G,, F,,F,D,F, | %112
 G,E,F,F,, G,,/G,/G,/F,/ F,/E,/E,/F,/ | F, z/ F/ F/E/E/D/ E/D/D/C/ D/=C/C/B,/ | %114
 =C/B,/B,/A,/ B,/A,/A,/G,/ A,/G,/G,/F,/ G,/F,/F,/E,/ | %115
 F,/E,/E,/D,/ E,/D,/D,/C,/ D,/C,/C,/B,,/ C,/B,,/B,,/^A,,/ | %116
 B,,/F,/B,/C/ B,/A,/G,/F,/ F,>^D, E,/F,/G,/E,/ | A,,/E,/A,/B,/ A,/G,/F,/E,/ D,>C, D,/E,/F,/D,/ | %118
 G,G,,G,,G,, F,,E,D,F, | G,E,F,F,, B,,3 z | z8 |[M:6/8] z2 D DEA, | EC z4 | F,A,D G,2 =C | %124
 F,B,B,, E,2 D, | C,E,G, A,,2 C, | D,B,,E, C,F,F,, | B,,F,A, ^G,DB, | C/A,/EE, A,,A,/B,/C/A,/ | %129
 z2 D DEA, | EC z4 | F,A,D G,2 =C | F,B,B,, E,2 D, | C,E,G, A,,2 C, | D,B,,E, C,F,F,, | %135
 B,,F,A, ^G,DB, | C/A,/EE, A,,3 | A,F,C, D,2 D | ECF F,3/2 z3/2 | E^A,B, G,E,C, | D,E,F, B,,B,C | %141
 DED C>A,E/G,/ | F,D,F, G,>F,E,/D,/ | A, z z A, z z | F,G,A, D,>E,F,/D,/ | A,F,C, D,2 D | %146
 ECF F,3/2 z3/2 | E^A,B, G,E,C, | D,E,F, B,,B,C | DED C>A,E/G,/ | F,D,F, G,>F,E,/D,/ | %151
 A, z z A, z z | F,G,A, D,3 | z6 |[M:2/2] z8 | z8 | z8 | z8 | z8 | z8 | z8 | z8 | F,4 F4- | %163
 F2 ^E2 F2 D2- | D2 ^E,2 F,2 D,2 | C,2 C2 A,2 F,2 | B,4 z2 ^G,2 | C4 z2 A,2 | D2 B,2 C2 C,2 | %169
 F,,2 F,2 E,2 D,2 | C,4 A,,4 | D,2 G,2 F,2 E,2 | F,4 F,,4 | B,,4 D,4 | C,2 G,2 F,2 B,,2 | %175
 ^A,,2 E,2 D,2 B,,2 | C,2 F,,2 z2 F,,2 | G,,2 ^D,2 E,2 ^G,,2 | A,,2 =F,2 ^F,2 ^A,,2 | %179
 B,,2 E,2 D,2 C,2 | B,,4 z2 B,2 | C4 z2 C,2 | D,4 z2 F,,2 | G,,4 z2 ^G,2 | A,^G,F,G, A,B,CA, | %185
 B,A,^G,A, B,CDB, | C2 ^E,2 F,2 ^G,2 | A,2 F,2 F4- | F2 ^E2 F2 D2- | D2 ^E,2 F,2 D,2 | %190
 C,2 B,,2 A,,2 F,,2 | B,,4 z2 ^G,,2 | C,4 z2 A,,2 | D,2 B,,2 C,4 | F,,2 F,2 D,2 C,2 | %195
 B,,2 A,,4 B,,C, | D,2 D2 C2 B,2 | ^A,2 F,4 ^G,A, | B,2 B,,2 A,,2 G,,2 | F,,2 D,,4 E,,F,, | %200
 G,,F,, E,,4 F,,G,, | A,,G,, F,,4 G,,A,, | B,,A,, G,,4 A,,B,, | =C,8 | B,,4 z4 | E,4 G,4 | %206
 F,2 =C2 B,2 E,2 | ^D,2 A,2 G,2 E,2 | F,2 B,,2 z2 B,,2 | =C,2 ^G,2 A,2 ^C,2 | D,2 ^A,2 B,2 ^D,2 | %211
 E,2 A,2 G,2 F,2 | E,4 z2 E,,2 | F,,4 z2 F,2 | G,4 z2 B,,2 | =C,4 z2 ^C,2 | D,C,B,,C, D,E,F,D, | %217
 E,D,C,D, E,F,G,E, | F,2 ^A,,2 B,,2 C,2 | D,2 B,,2 B,4- | B,2 ^A,2 B,2 G,2- | G,2 ^A,,2 B,,2 G,,2 | %222
 F,,2 E,2 D,2 B,,2 | E,4 z2 C,2 | F,4 z2 D,2 | G,2 E,2 F,2 F,,2 | B,,2 B,2 A,2 G,2 | F,2 D,4 E,F, | %228
 G,,2 G,2 F,2 E,2 | ^D,2 B,,4 C,D, | E,,2 D,2 C,2 B,,2 | ^A,,2 F,^G, ^A,B,CA, | B,2 B,,4 C,D, | %233
 E,D, C,4 D,E, | z8 | z8 | !fermata!F,8 |[M:1/16] z/ |[M:12/16] B, z/ ^A, z/ B, z/ B,, z/ | %239
 C, z/ C z/ D z/ B, z/ | E, z/ D, z/ G, z/ F, z/ | E, z/ C, z/ F, z/ ^A, z/ | %242
 B, z/ F, z/ B,,D,/ F,B,/ | C,E,/ ^A,C/ D,F,/ B,D/ | E, z/ D, z/ G, z/ F, z/ | %245
 G, z/ G,, z/ F,, z/ ^A,, z/ | B,, z/ D, z/ E, z/ G, z/ | A,, z/ C, z/ D, z/ F, z/ | %248
 G,3/2- G,/F,/E,/ F,3/2- F,/E,/D,/ | B,3/2- B,/A,/G,/ A,3/2- A,/G,/F,/ | G, z/ E, z/ A, z/ C z/ | %251
 DF,/ A,A,,/ D,3/2- D,/A,,/D,/ | F, z/ D, z/ G,,3/2- G,,/G,/F,/ | ^G, z/ E, z/ A,,3/2- A,,/A,/G,/ | %254
 ^A, z/ F, z/ B,,3/2- B,,/B,/A,/ | B,3/2- B,B,,/ B,3/2- B,/A,/^G,/ | A, z/ ^E, z/ F, z/ F,, z/ | %257
 ^G,, z/ C, z/ A,, z/ F,, z/ | B,, z/ A,, z/ E, z/ C, z/ | B,, z/ ^G,, z/ C, z/ ^E, z/ | %260
 F, z/ C, z/ F,, z z/ F,/ | ^G,B,/ ^E,G,/ A, z/ F, z/ | B, z/ C z/ D z/ C z/ | %263
 B, z/ D z/ C z/ ^E, z/ | F, z/ A, z/ B, z/ D, z/ | E, z/ ^G, z/ A,E,/ C3/2- | %266
 C/B,/A,/ B,/A,/^G,/ A,3/2- A,/G,/F,/ | D3/2- D/C/B,/ C3/2- C/B,/A,/ | B, z/ z ^B,/ C z/ z ^E,/ | %269
 F,A,,/ C,C,,/ F,,3/2- F,, z/ | B, z/ ^A, z/ B, z/ B,, z/ | C, z/ C z/ D z/ B, z/ | %272
 E, z/ D, z/ G, z/ F, z/ | E, z/ C, z/ F, z/ ^A, z/ | B, z/ F, z/ B,,D,/ F,B,/ | %275
 C,E,/ ^A,C/ D,F,/ B,D/ | E, z/ D, z/ G, z/ F, z/ | G, z/ G,, z/ F,, z/ ^A,, z/ | %278
 B,, z/ D, z/ E, z/ G, z/ | A,, z/ C, z/ D, z/ F, z/ | G,3/2- G,/F,/E,/ F,3/2- F,/E,/D,/ | %281
 B,3/2- B,/A,/G,/ A,3/2- A,/G,/F,/ | G, z/ E, z/ A, z/ C z/ | DF,/ A,A,,/ D,3/2- D,/A,,/D,/ | %284
 F, z/ D, z/ G,,3/2- G,,/G,/F,/ | ^G, z/ E, z/ A,,3/2- A,,/A,/G,/ | %286
 ^A, z/ F, z/ B,,3/2- B,,/B,/A,/ | B,3/2- B,B,,/ B,3/2- B,/A,/^G,/ | A, z/ ^E, z/ F, z/ F,, z/ | %289
 ^G,, z/ C, z/ A,, z/ F,, z/ | B,, z/ A,, z/ E, z/ C, z/ | B,, z/ ^G,, z/ C, z/ ^E, z/ | %292
 F, z/ C, z/ F,, z z/ F,/ | ^G,B,/ ^E,G,/ A, z/ F, z/ | B, z/ C z/ D z/ C z/ | %295
 B, z/ D z/ C z/ ^E, z/ | F, z/ A, z/ B, z/ D, z/ | E, z/ ^G, z/ A,E,/ C3/2- | %298
 C/B,/A,/ B,/A,/^G,/ A,3/2- A,/G,/F,/ | D3/2- D/C/B,/ C3/2- C/B,/A,/ | B, z/ z ^B,/ C z/ z ^E,/ | %301
 F,A,,/ C,C,,/ F,,3/2- F,, z/ | F,/^A,/C/ F, z/ F,/A,/B,/ F, z/ | F,/^A,/C/ F,F,,/ B,, z/ z3/2 | %304
 B,,/^D,/F,/ B,, z/ B,,/D,/E,/ B,, z/ | B,,/^D,/F,/ B,,B,/ E,F,/ G,E,/ | A, z/ B, z/ =C z/ ^D, z/ | %307
 E, z/ =C, z/ F, z/ A,/G,/F,/ | G, z/ ^D, z/ E, z/ E,, z/ | F,, z/ F, z/ G, z/ ^G, z/ | %310
 A, z/ E, z/ =C, z/ D, z/ | G, z/ D, z/ B,,G,/ A,B,/ | =C, z/ D, z/ E, z/ F, z/ | %313
 G,, z/ A,, z/ B,,/D,/F,/ A,/F,/F,/ | E, z/ F, z/ G, z/ G,, z/ | A,, z/ A, z/ B, z/ G, z/ | %316
 =C z/ G, z/ A, z/ E, z/ | F, z/ G, z/ ^A,,C,/ A,,F,,/ | B,,/^D,/F,/ B,, z/ B,,/D,/E,/ B,, z/ | %319
 B,,/^D,/F,/ B,B,,/ E,=D,/ C,E,/ | F,/^A,/C/ F, z/ F,/A,/B,/ F, z/ | %321
 F,/^A,/C/ F,F,,/ B,,A,,/ G,,F,,/ | E,, z/ G,, z/ A,, z/ C, z/ | D,, z/ F,, z/ G,, z/ B,, z/ | %324
 C, z/ E, z/ F,F,,/ ^A,,C,/ | D,F,,/ B,,D,/ F,3/2- F,/C,/A,,/ | %326
 F,,3/2- F,,/B,,/D,/ F,/^E,/F,/ F,,/^A,,/C,/ | F,/^E,/F,/ F,,/B,,/D,/ F,/E,/F,/ F,,/^A,,/C,/ | %328
 F,/^E,/F,/ F,,/^A,,/C,/ F,/E,/F,/ F,,/A,,/C,/ | F,/^E,/F,/ F,,/B,,/D,/ F,/=E,/F,/ F,,/B,,/^D,/ | %330
 G,->G,F,/E,/ F,->F,E,/D,/ | G,3/2- G,/F,/E,/ F,3/2- F,/E,/D,/ | E, z/ C, z/ F, z/ ^A,, z/ | %333
 B,,D,/ F,F,,/ B,,/F,,/D,,/ !fermata!B,,, z/ | F,/^A,/C/ F, z/ F,/A,/B,/ F, z/ | %335
 F,/^A,/C/ F,F,,/ B,, z/ z3/2 | B,,/^D,/F,/ B,, z/ B,,/D,/E,/ B,, z/ | %337
 B,,/^D,/F,/ B,,B,/ E,F,/ G,E,/ | A, z/ B, z/ =C z/ ^D, z/ | E, z/ =C, z/ F, z/ A,/G,/F,/ | %340
 G, z/ ^D, z/ E, z/ E,, z/ | F,, z/ F, z/ G, z/ ^G, z/ | A, z/ E, z/ =C, z/ D, z/ | %343
 G, z/ D, z/ B,,G,/ A,B,/ | =C, z/ D, z/ E, z/ F, z/ | G,, z/ A,, z/ B,,/D,/F,/ A,/F,/F,/ | %346
 E, z/ F, z/ G, z/ G,, z/ | A,, z/ A, z/ B, z/ G, z/ | =C z/ G, z/ A, z/ E, z/ | %349
 F, z/ G, z/ ^A,,C,/ A,,F,,/ | B,,/^D,/F,/ B,, z/ B,,/D,/E,/ B,, z/ | %351
 B,,/^D,/F,/ B,B,,/ E,=D,/ C,E,/ | F,/^A,/C/ F, z/ F,/A,/B,/ F, z/ | %353
 F,/^A,/C/ F,F,,/ B,,A,,/ G,,F,,/ | E,, z/ G,, z/ A,, z/ C, z/ | D,, z/ F,, z/ G,, z/ B,, z/ | %356
 C, z/ E, z/ F,F,,/ ^A,,C,/ | D,F,,/ B,,D,/ F,3/2- F,/C,/A,,/ | %358
 F,,3/2- F,,/B,,/D,/ F,/^E,/F,/ F,,/^A,,/C,/ | F,/^E,/F,/ F,,/B,,/D,/ F,/E,/F,/ F,,/^A,,/C,/ | %360
 F,/^E,/F,/ F,,/^A,,/C,/ F,/E,/F,/ F,,/A,,/C,/ | F,/^E,/F,/ F,,/B,,/D,/ F,/=E,/F,/ F,,/B,,/^D,/ | %362
 G,->G,F,/E,/ F,->F,E,/D,/ | G,3/2- G,/F,/E,/ F,3/2- F,/E,/D,/ | E, z/ C, z/ F, z/ ^A,, z/ | %365
 B,,D,/ F,F,,/ B,,/F,,/D,,/ !fermata!B,,, z/ |] %366
V:3
 x2 | x8 | x8 | x8 | x8 | x8 | x8 | x8 | x8 | x8 | x8 | x8 | x8 | x8 | x8 | x8 | x8 | x8 | x8 | %19
 x8 | x8 | x8 | x8 | x8 | x8 | x8 | x8 | D,G,A,^A, B,CDC | x8 | x8 | x8 | x8 | x8 | x8 | x8 | x8 | %36
 x8 | x8 | x8 | x8 | x8 | x8 | x8 | x8 | x8 | x8 | x8 | x8 | x8 | x8 | x8 | x8 | x8 | x8 | x8 | %55
 x8 | x8 | x8 | x8 | x8 | x8 | x8 | x8 | G,, z4 z2 z | x8 | x8 | x8 | x8 | x8 | x8 | x8 | x8 | x8 | %73
 x8 | x8 | x8 | x8 | x8 | x8 | x8 | x8 | x8 | x8 | x8 | x8 | x8 | x8 | x8 | x8 | x8 | x8 | x8 | %92
 x8 | x8 | x8 | x8 | x8 | x8 | x8 | x8 | x8 | x8 | x8 | x8 | x8 | x8 | x8 | x8 | x8 | x8 | x8 | %111
 x8 | x8 | x8 | x8 | x8 | x8 | x8 | x8 | x8 | x8 |[M:6/8] DB,F, G,2 F, | E,A,A,, D,2 E, | x6 | x6 | %125
 x6 | x6 | x6 | x6 | DB,F, G,2 F, | E,A,A,, D,2 E, | x6 | x6 | x6 | x6 | x6 | x6 | x6 | %138
 C^A,F, B,>B,C/D/ | x6 | x6 | x6 | x6 | C,E,G, A,,C,E, | F,,G,,A,, D,,3/2 z3/2 | x6 | %146
 C^A,F, B,>B,C/D/ | x6 | x6 | x6 | x6 | C,E,G, A,,C,E, | F,,G,,A,, D,,3 | x6 |[M:2/2] x8 | x8 | %156
 x8 | x8 | x8 | x8 | x8 | x8 | x8 | x8 | x8 | x8 | x8 | x8 | x8 | x8 | x8 | x8 | x8 | x8 | x8 | %175
 x8 | x8 | x8 | x8 | x8 | x8 | x8 | x8 | x8 | x8 | x8 | x8 | x8 | x8 | x8 | x8 | x8 | x8 | x8 | %194
 x8 | x8 | x8 | x8 | x8 | x8 | x8 | x8 | x8 | x8 | x8 | x8 | x8 | x8 | x8 | x8 | x8 | x8 | x8 | %213
 x8 | x8 | x8 | x8 | x8 | x8 | x8 | x8 | x8 | x8 | x8 | x8 | x8 | x8 | x8 | x8 | x8 | x8 | x8 | %232
 x8 | x8 | x8 | x8 | x8 |[M:1/16] x/ |[M:12/16] x6 | x6 | x6 | x6 | x6 | x6 | x6 | x6 | x6 | x6 | %248
 x6 | x6 | x6 | x6 | x6 | x6 | x6 | x6 | x6 | x6 | x6 | x6 | x6 | x6 | x6 | x6 | x6 | x6 | x6 | %267
 x6 | x6 | x6 | x6 | x6 | x6 | x6 | x6 | x6 | x6 | x6 | x6 | x6 | x6 | x6 | x6 | x6 | x6 | x6 | %286
 x6 | x6 | x6 | x6 | x6 | x6 | x6 | x6 | x6 | x6 | x6 | x6 | x6 | x6 | x6 | x6 | x6 | x6 | x6 | %305
 x6 | x6 | z3 B,,/^D,/F,/ z3/2 | x6 | x6 | x6 | x6 | x6 | x6 | x6 | x6 | x6 | x6 | x6 | x6 | x6 | %321
 x6 | x6 | x6 | x6 | x6 | x6 | x6 | x6 | x6 | x6 | x6 | x6 | x6 | x6 | x6 | x6 | x6 | x6 | %339
 z3 B,,/^D,/F,/ z3/2 | x6 | x6 | x6 | x6 | x6 | x6 | x6 | x6 | x6 | x6 | x6 | x6 | x6 | x6 | x6 | %355
 x6 | x6 | x6 | x6 | x6 | x6 | x6 | x6 | x6 | x6 | x6 |] %366
V:4
 z/ E/D/C/ | D/B/E/^A/ B/F/c/E/ D/B/E/A/ B/F/c/E/ | D/B/E/c/ D/B/C/^A/ B/F/E/F/ D/F/G/B/ | %3
 =F/c/c/^F/ F/E/^D/E/ D/B/B/E/ E/=D/C/D/ | C/^A/B/d/ c/B/A/B/ c/B/A/^G/ F/E/D/C/ | %5
 D/B/E/^A/ B/F/c/E/ D/B/E/A/ B/F/c/E/ | D/B/E/c/ D/B/C/^A/ B/F/E/F/ D2- | %7
 D/B/B/D/ D/B/B/D/ D/C/C/B,/ C2- | C/A/A/=C/ C/A/A/C/ C/B,/B,/^A,/ B,/^C/D- | %9
 D/C/B/^A/ B/F/c/B/ c/G/e/d/ eB/4A/4^G/4A/4 | B/F/G/F/ E/D/C/B,/ ^A,/C/F/^A/ c/B/B/A/ | %11
 B/A/4G/4F/A/ ^D/F/F/D/ D/E/E/B,/ B,/C/4D/4E/4F/4G/- | G/c/c/e/ e/d/d/c/ c/d/d/^A/ A/B/B/F/ | %13
 G/=c/c/B/ B/D/D/C/ C/f/f/e/ e/^A/A/B/ | B/F/E/D/ F/E/D/C/ B,/F/F/E/ E/G/G/F/ | %15
 F/^A/B/d/ c/f/f/=f/ z/ D/D/C/ C/F/F/E/ | E z2 z z/ c/4B/4c/e/ d/c/B/^A/ | %17
 B/A/4G/4F/A/ G/F/E/D/ GGGG | G/4F/4E/{E}F-{E} FA, FFFF | %19
 F/4E/4^D/{=D}E-{D} Ee- e/c/^A/B/ B/c/4d/4c/E/ | D/C/4B,/4C/B/ ^A>B B/=A/4G/4F/E/ D/B/C/^A/ | %21
 [DFB] z [F^A] z z/ B/B/A/ B z | z BB^A z/ d/d/c/ B z | z [A^d][Be][^GB] z/ c/c/B/ A z | %24
 z [Gc][FA][DFA] z/ B/B/^A/ B z | z edc cfe z | z fed ea z A | %27
 f/4e/4d/{d}e- e/d/4e/4f/4e/4d/4c/4 d/4c/4B/A- A/B/4c/4d/e/ | %28
 f/4e/4d/{d}e- e/d/4e/4f/4e/4d/4c/4 dD (3z/ D/E/(3F/G/A/ | %29
 B/D/^D/A/ (3G/E/F/(3^G/A/B/ c/E/^E/B/ (3A/F/G/(3A/B/c/ | %30
 d/^E/F/c/ (3B/d/c/(3B/A/^G/ (3F/E/^D/(3E/F/G/ C/E/G/B/ | %31
 (3B/A/^G/(3A/B/c/ (3d/f/e/(3d/c/B/ (3A/G/F/(3G/A/B/ (3c/e/d/(3c/B/A/ | %32
 (3^G/F/^E/(3F/G/A/ (3B/d/c/(3B/A/G/ (3F/E/^D/(3E/F/G/ (3C/=D/C/(3B,/A,/^G,/ | %33
 A,/F/B,/=F/ ^F/C/^G/B,/ A,/F/B,/=F/ ^F/C/G/B,/ | A,/F/B,/^G/ A,/F/^G,/=F/ ^F/C/B,/C/ A, z | %35
 z/ c/B/A/ ^G=G F/^A,/B, z/ F/^G/B/ | =F/c/c/^F/ F/E/^D/E/ D/B/B/E/ Ee | %37
 f/4e/4f/4e/4^d z =d e/4d/4e/4d/4c z C | z c- cB/4c/4d/ cc- cB/4c/4d/ | cdcB A^G/A/ F2- | %40
 FB- B/A/^G/F/ GGG=G | Ge- (3e/d/c/(3B/A/G/ FFFF | Fd- (3d/c/B/(3A/G/F/ (3E/^D/E/(3A/G/F/ Ee | %43
 ^d=dc=c BDCB- | B/A/4^G/4A/B/ c/4B/4c/4B/4c/4B/4A/4B/4 cF ^E/G/D- | %45
 D/C/B/4A/4^G/ G/A/D- (3D/C/E/_B,- B,/A,/(=G/4F/4E/) | E/F/ z z2 z B ^A/c/G- | %47
 G/F/e/4d/4c/ c/d/G- G/F/4A/4_E- E/D/=c/4B/4A/ | A/B/ z2 (B, =C)^DEG | ^AdcE DC/B,/ D/C/B,/^A,/ | %50
 B, z z4 z B | A(dc)f ^Bc z2 | z2 z ^B f^e z C | %53
 A/4^G/4F/{F}G- G/F/4G/4A/4G/4F/4^E/4 F/4=E/4D/C- C/^D/4^E/4F/G/ | %54
 A/4^G/4F/G- G/F/4G/4A/4G/4F/4^E/4 FF, z C | AAAA A/4^G/4F/{F}G-{F} GB, | %56
 GGGG G/4F/4E/{E}F-{E} FA- | A/^G/G/=G/ G/F/F/^E/ =F/d/d/c/ c/^e/e/f/ | %58
 Fd/c/ B/A/^G/F/ F/E/4D/4C/B,/ A,/F/^G,/^E/ | Fcfc z FA^D | EBeB z EGC | Dfed z ed[^Ac] | %62
 z dBG z =cAF | dd- d=c/4d/4e/ dd- dc/4d/4e/ | ded=c c/4B/4c/4B/4A/B/ (3G/B/A/(3G/F/E/ | %65
 (3F/A/G/(3F/D/E/ (3F/A/G/(3F/D/E/ (3=F/A/G/(3F/E/D/ (3=C/B,/C/(3D/E/F/ | %66
 (3E/G/=F/(3E/=C/D/ (3E/G/F/(3E/C/D/ (3E/G/F/(3E/D/C/ (3B,/A,/B,/(3C/D/E/ | %67
 (3D/=F/E/(3D/=C/B,/[I:staff +1] (3A,/^G,/F,/(3G,/A,/B,/[I:staff -1] (3C/E/D/(3C/B,/A,/[I:staff +1] (3=G,/F,/E,/(3F,/G,/A,/ | %68
 (3B,/G,/A,/[I:staff -1] (3B,/C/^D/ (3E/=C/=D/(3E/F/G/ (3A/B/A/(3G/F/E/ (3^D/^C/B,/[I:staff +1] (3B,/A,/G,/ | %69
[I:staff -1] G,/E/A,/^D/ E/B,/F/A,/ G,/E/A,/D/ E/B,/F/A,/ | %70
 G,/E/A,/F/ G,/E/F,/^D/ E/B/A/B/ (3G/E/F/(3G/A/B/ | =C=c- (3c/A/B/(3^c/d/e/ Ff- (3f/D/E/(3F/G/A/ | %72
 B,B- (3B/G/A/(3B/c/d/ Ee- (3e/=C/D/(3E/F/G/ | %73
 (3A,/F/G/(3A/B/=c/ (3c/B/^c/(3^d/e/f/ (3f/^D/E/(3F/G/A/ (3A/G/A/(3B/c/d/ | %74
 e z2 B, G/4F/4E/F- F/E/4F/4G/4F/4E/4^D/4 | %75
 E/4D/4C/B,- B,/C/4^D/4E/F/ G/4F/4E/F- F/E/4F/4G/4F/4E/4D/4 | E/4^D/4C/D =c=F DE z2 | %77
 z GFB ^GA z2 | z =cBe ^cd^AB | E/4D/4E/4D/4E/4D/4E/4D/4 E/4D/4E/4D/4E/4D/4E/4D/4 C2 z B, | %80
 FF- FE/4F/4G/ FF- FE/4F/4G/ | FGFE E/4D/4E/4D/4C/D/ B,/F/G/B/ | =F/c/c/^F/ F/E/^D/E/ D/B/B/E/ Ee | %83
 f/4e/4f/4e/4^d z =d e/4d/4e/4d/4c z =c | B^deE ^Ac F/E/D/C/ | %85
 D/B/E/^A/ B/F/c/E/ D/B/E/A/ B/F/c/E/ | D/B/E/c/ D/B/C/^A/ B2- B/=A/G/F/ | %87
 GGGG Ge- (3e/d/c/(3B/A/G/ | FFF=F Fd- (3d/=c/B/(3A/G/=F/ | (3E/^D/E/(3^F/E/D/ Ee ^d=dc=c | %90
 BDCA- A/G/4F/4G/A/ B/4A/4B/4A/4B/4A/4G/4A/4 | B2 z B- (3B/^A/c/=G- G/F/e/4d/4c/ | %92
 c/d/ z z2 z G- (3G/F/A/_E- | E/D/=c/4B/4A/ A/B/=E- (3E/^D/F/=C- C/B,/A/4G/4F/ | %94
 F/G/ z z2 z =C- (3C/B,/D/_A,- | A,/G,/(=F/4E/4D/) (D/E/) z z4 | z2 z B, =C^DEG | %97
 ^AdcE DC/B,/ D/C/B,/^A,/ | B,2 z ^E B^A z =E | DGFB ^EF z2 | %100
 z2 z F d/4c/4B/c- c/B/4c/4d/4c/4B/4^A/4 | %101
 B/4^A/4^G/F- F/G/4A/4B/c/ d/4c/4B/c- c/B/4c/4d/4c/4B/4A/4 | BB, z B B^A z c- | %103
 (3c/B/c/(3d/e/f/ (3g/a/b/(3a/g/f/ (3e/c/d/(3e/f/g/ (3a/b/c'/(3b/a/g/ | %104
 (3f/a/g/(3f/e/d/ (3c/B/^A/(3B/c/d/ (3e/g/f/(3e/d/c/ (3B/A/^G/(3A/B/c/ | dG z G F^d z F- | %106
 (3F/G/A/(3B/c/d/ eE- (3E/C/D/(3E/F/G/ A,A- | (3A/F/G/(3A/B/c/ dD- (3D/B,/C/(3D/E/F/ G,G- | %108
 (3G/E/F/(3G/A/B/ (3C/^A/B/(3c/d/e/ ^A z2 z | (3z/ B/=A/(3G/F/E/ (3D/F/E/(3D/C/B,/ GGGG | %110
 (3G/F/E/(3F/E/D/ (3=C/B,/A,/(3^G,/A,/C/ FFFF | F/4E/4^D/{D}E- Ee- e/c/^A/B/ B/c/4d/4c/E/ | %112
 D/C/4B,/4C/G/ F/E/D/C/ B,EDG | ^EF z2 z F=EA | FG z2 z BAd | B=c^AB F2 z F | %116
 dddd d/4=c/4B/{B}c-{B} cE | =cccc c/4B/4^A/{A}B-{A} BD- | %118
 D/C/C/=C/ C/B,/B,/^A,/ A,/G/G/F/ F/^A/A/B/ | B,G/F/ E/D/C/B,/ B,3 z | z8 | %121
[M:6/8] [Ad][Bd][=cd] [Bd]^c/4e/4d/4c/4d/4c/4B/4A/4 | z/ ccc/ d3/2c/4B/4A/4G/4F/4E/4 | %123
 ddd d-d/4^d/4e/4f/4e/4=d/4=c/4B/4 | z/ ^ddd/ e3/2=d/4=c/4B/4A/4G/4F/4 | [Ae][Gc][EB] c2 A | %126
 [FA][Bd][^GB] [ce][Ac][cf] | [Bdf][Bd][FB] [Be][^GB][Gd] | cB/c/d dc/d/e/c/ | %129
 [Ad][Bd][=cd] [Bd]^c/4e/4d/4c/4d/4c/4B/4A/4 | z/ ccc/ d3/2c/4B/4A/4G/4F/4E/4 | %131
 ddd d-d/4^d/4e/4f/4e/4=d/4=c/4B/4 | z/ ^ddd/ e3/2=d/4=c/4B/4A/4G/4F/4 | [Ae][Gc][EB] c2 A | %134
 [FA][Bd][^GB] [ce][Ac][cf] | [Bdf][Bd][FB] [Be][^GB][Gd] | cB/c/d- d c2 | %137
 [Ac][cf][Ae] e/c/d/4e/4d/4c/4B/4A/4G/4F/4 | [eg][ef][f^a] [fb-]b/4=a/4g/4b/4a/4g/4f/4a/4 | %139
 g3/2gg/- g/eee/ | [Bd]B^A B/4F/4^G/4A/4 B/4c/4d/4f/4 e/4d/4c/4B/4- | BB^G [GB]E z | %142
 [da][df][A=cd] [Acd]g z | [eg][ce][Gc] [Gce][Gc][EGA] | [Ad][Bd][GAc] [Ad]3 | %145
 [Ac][cf][Ae] e/c/d/4e/4d/4c/4B/4A/4G/4F/4 | [eg][ef][f^a] [fb-]b/4=a/4g/4b/4a/4g/4f/4a/4 | %147
 g3/2gg/- g/eee/ | [Bd]B^A B/4F/4^G/4A/4 B/4c/4d/4f/4 e/4d/4c/4B/4- | BB^G [GB]E z | %150
 [da][df][A=cd] [Acd]g z | [eg][ce][Gc] [Gce][Gc][EGA] | [Ad][Bd][GAc] [Ad]3 | z6 |[M:2/2] z8 | %155
 z8 | z8 | z8 | z8 | z8 | z8 | z8 | F4 A4 | ^G2 d2 c2 F2 | ^E2 B2 A2 F2 | ^G2 C2 z2 C2 | %166
 D2 ^A2 B2 ^D2 | E2 ^B2 c2 =F2 | F2 B2 A2 ^G2 | A^GFG ABcd | efed cBAG | FEDC B,^A,B,C | %172
 DGFE DCB,^A, | B,CDE FGFG | EFEF DEDE | CDCD B,CB,C | ^A,B^A^G FEDC | B,=cBA GFED | CdcB AGFE | %179
 D2 G2 F2 ^A2 | B2 d2 G4- | G2 e2 A4- | AGFG AB=cA | BAGA BcdB | c4 z2 A2 | d6 B2 | ^e2 ^g2 c4- | %187
 cBAB cdcd | BcBc ABAB | ^GAGA FGFG | ^EFE^D CB,A,^G, | F,GFE DCB,A, | ^G,A^GF ^E^DCB, | %193
 A,2 D2 C2 ^E2 | F^G A4 A2- | A2 GF G4 | z2 F4 F2- | F2 ED E4 | z2 D4 D2- | D2 =CB, C4 | %200
 z2 GA BcdB | cBAB c^dec | ^dcBc defd | e^deg fede | f2 Bc ^de f2- | f^d e2 z2 e2- | %206
 ec ^d2 z2 =c2- | c2 ^D2 E2 G2 | A2 F2 E/4^D/4E/4D/4E/4D/4E/4D/4 E/4D/4E/4D/4E/4D/4E/4D/4 | %209
 E=fed =cBAG | F8- | FE^DE FGAF | GFEF GABG | AGFG AB=cA | B2 d2 G4- | G2 e2 A4- | A2 de f4- | %217
 f2 ef g4- | g2 fe dcB^A | B4 d4 | c2 g2 f2 B2 | ^A2 e2 d2 B2 | c2 F2 z2 F2 | G2 ^d2 e2 ^G2 | %224
 A2 ^e2 f2 ^A2 | B2 e2 d2 c2 | dcBc defg | abag fed=c | BAGA Bc^de | fgfe ^dcBA | GBcd efed | %231
 cB^AB c4- | cFBc d4- | dBcd e4- | ecde f4- | f2 gf edcB | !fermata!f8 |[M:1/16] z/ | %238
[M:12/16] [FBd] z/ [Fce] z/ [FBd] z/ [Bdf] z/ | [Bce] z/ [^Aeg] z/ [Aef] z/ [Bdf] z/ | %240
 [Beg] z/ [B,FB] z/ [CE^A] z/ [DFB] z/ | [EGB] z/ [EGBe] z/ [E^Ac] z z/ F/ | %242
 B/d/c/- c/G/F/- F/e/d/- d/A/^G/- | G/f/e/- e/B/^A/- A/g/f/- f/A/B/ | %244
 g/^A/B/ f/A/B/ e/A/B/ d/A/B/ | c/e/g/ e/c/B/ ^A/c/f/ e/d/c/ |{c} d3/2 z B/ B/e/g/ ^d/e/B/ | %247
{B} c3/2 z A/ A/d/f/ c/d/A/ | BB,/ DG/ AA,/ DF/ | GB/ DB/ FA/ DA/ | BE/ Bd/ c/B/A/ e3/2- | %251
 e/c/d/ F/G/E/ D3/2- DD/ | D/F/A/ =C/B,/A,/ B,/G,/B,/ D/B,/D/ | E/^G/B/ E/D/C/ C/A,/C/ E/D/E/ | %254
 F/^A/c/ E/D/C/ D/B,/D/ F/D/F/ | ^G/B/d/ A/G/F/ ^E/G/B/ D/C/B,/ | %256
 F/A/^G/- G/D/C/- C/B/A/- A/E/^D/- | D/c/B/- B/F/^E/- E/d/c/- c/E/F/ | %258
 d/^E/F/ c/E/F/ B/E/F/ A/E/F/ | ^G/B/d/ B/G/F/ ^E/G/c/ B/A/G/ | A/F/C/ ^E/^G/B/ A/G/F/ fA/ | %261
 B/A/^G/ ^gB/ c/B/A/ B/G/B/ | F/^G/A/ A/G/F/ fB/ fA/ | dB/ ^EE/{F} ^G3/2- GC/ | %264
 C/F/A/ ^E/F/C/ D3/2 z B,/ | B,/E/^G/ ^D/E/B,/ C3/2 z c/ | F/^E/F/ d/c/B/ F/E/F/ c/B/A/ | %267
 F/^E/F/ B/A/^G/ F/E/F/ A/G/F/ | ^G/B/d/ c/B/A/ G/F/^E/ D/C/B,/ | A,c/ C/F/^E/ F3/2-F z/ | %270
 [FBd] z/ [Fce] z/ [FBd] z/ [Bdf] z/ | [Bce] z/ [^Aeg] z/ [Aef] z/ [Bdf] z/ | %272
 [Beg] z/ [B,FB] z/ [CE^A] z/ [DFB] z/ | [EGB] z/ [EGBe] z/ [E^Ac] z z/ F/ | %274
 B/d/c/- c/G/F/- F/e/d/- d/A/^G/- | G/f/e/- e/B/^A/- A/g/f/- f/A/B/ | %276
 g/^A/B/ f/A/B/ e/A/B/ d/A/B/ | c/e/g/ e/c/B/ ^A/c/f/ e/d/c/ |{c} d3/2 z B/ B/e/g/ ^d/e/B/ | %279
{B} c3/2 z A/ A/d/f/ c/d/A/ | BB,/ DG/ AA,/ DF/ | GB/ DB/ FA/ DA/ | BE/ Bd/ c/B/A/ e3/2- | %283
 e/c/d/ F/G/E/ D3/2- DD/ | D/F/A/ =C/B,/A,/ B,/G,/B,/ D/B,/D/ | E/^G/B/ E/D/C/ C/A,/C/ E/D/E/ | %286
 F/^A/c/ E/D/C/ D/B,/D/ F/D/F/ | ^G/B/d/ A/G/F/ ^E/G/B/ D/C/B,/ | %288
 F/A/^G/- G/D/C/- C/B/A/- A/E/^D/- | D/c/B/- B/F/^E/- E/d/c/- c/E/F/ | %290
 d/^E/F/ c/E/F/ B/E/F/ A/E/F/ | ^G/B/d/ B/G/F/ ^E/G/c/ B/A/G/ | A/F/C/ ^E/^G/B/ A/G/F/ fA/ | %293
 B/A/^G/ ^gB/ c/B/A/ B/G/B/ | F/^G/A/ A/G/F/ fB/ fA/ | dB/ ^EE/{F} ^G3/2- GC/ | %296
 C/F/A/ ^E/F/C/ D3/2 z B,/ | B,/E/^G/ ^D/E/B,/ C3/2 z c/ | F/^E/F/ d/c/B/ F/E/F/ c/B/A/ | %299
 F/^E/F/ B/A/^G/ F/E/F/ A/G/F/ | ^G/B/d/ c/B/A/ G/F/^E/ D/C/B,/ | A,c/ C/F/^E/ F3/2-F F/ | %302
 ^A/c/G/- G/F/^E/ F/c/F/ F/E/^D/ | E/c/E/- E/D/C/ D/E/F/ B,/D/F/ | A3/2- A/G/F/ G3/2- G/F/E/ | %305
 F3/2- F/E/^D/ E3/2 z e/ | =c z/ B z/ A z/ A z/ | G z/ E z/ ^D3/2- DB,/ | %308
 E/G/F/- F/=C/B,/- B,/A/G/- G/D/^C/- | C/B/A/ A/E/^D/ D/=c/B/ z/ D/E/ | =c/^D/E/ B/D/E/ A3- | %311
 AG/ A/4G/4A/4G/4F/ d/B/G/ F/G/D/ | E/A/G/- G/A/F/ G/=c/B/- B/c/A/ | %313
 B/e/d/- d/e/=c/ e/4d/4e/4d/4e/4d/4 e/4d/4e/4d/4e/4d/4 | %314
 e/4d/4e/4d/4e/4d/4 e/4d/4e/4d/4e/4d/4 e/4d/4e/4d/4e/4d/4 e/4d/4e/4d/4e/4d/4 | %315
 e/4d/4e/4d/4e/4d/4 e/4d/4e/4d/4e/4d/4 e/4d/4e/4d/4e/4d/4 e/4d/4e/4d/4e/4d/4 | %316
 e/4d/4e/4d/4=c/ d/4c/4d/4c/4B/ c/4B/4c/4B/4A/ B/4A/4B/4A/4G/ | %317
 A/4G/4A/4G/4F/ G/4F/4G/4F/4E/ E3/2 z C/ | A3/2- A/G/F/ G3/2- G/F/E/ | F3/2- F/E/^D/ E3/2- E/D/C/ | %320
 ^A/c/G/- G/F/=F/ ^F/c/F/- F/=F/^D/ | E/c/E/- E/D/C/ D/F/B/ d3/2- | d/G/B/ E3/2 E/C/E/ A3/2- | %323
 A/F/A/ D3/2- D/B,/D/ G3/2- | G/E/G<c- c/^A/c/ f z/ | z3/2 z B,/ ^A,/F,/A,/ C/=F/^F/ | %326
 B,/^G,/B,/ D/^E/F/ Cc/ ^A=F/ | Dd/ BF/ Ee/ c^A/ | B z/ ^A z/ d z/ cB/ | %329
 ^A/g/f/- f/B/A/- A/e/^d/- d/a/f/ | gG/ Be/ fF/ Bd/ | eg/ Bg/ df/ Bf/ | Ge/ ^Ac/ B/A/G/ c3/2- | %333
 c/^A/B/ D/E/C/ B,/D/F/- !fermata![FB] F/ | ^A/c/G/- G/F/^E/ F/c/F/ F/E/^D/ | %335
 E/c/E/- E/D/C/ D/E/F/ B,/D/F/ | A3/2- A/G/F/ G3/2- G/F/E/ | F3/2- F/E/^D/ E3/2 z e/ | %338
 =c z/ B z/ A z/ A z/ | G z/ E z/ ^D3/2- DB,/ | E/G/F/- F/=C/B,/- B,/A/G/- G/D/^C/- | %341
 C/B/A/ A/E/^D/ D/=c/B/ z/ D/E/ | =c/^D/E/ B/D/E/ A3- | AG/ A/4G/4A/4G/4F/ d/B/G/ F/G/D/ | %344
 E/A/G/- G/A/F/ G/=c/B/- B/c/A/ | B/e/d/- d/e/=c/ e/4d/4e/4d/4e/4d/4 e/4d/4e/4d/4e/4d/4 | %346
 e/4d/4e/4d/4e/4d/4 e/4d/4e/4d/4e/4d/4 e/4d/4e/4d/4e/4d/4 e/4d/4e/4d/4e/4d/4 | %347
 e/4d/4e/4d/4e/4d/4 e/4d/4e/4d/4e/4d/4 e/4d/4e/4d/4e/4d/4 e/4d/4e/4d/4e/4d/4 | %348
 e/4d/4e/4d/4=c/ d/4c/4d/4c/4B/ c/4B/4c/4B/4A/ B/4A/4B/4A/4G/ | %349
 A/4G/4A/4G/4F/ G/4F/4G/4F/4E/ E3/2 z C/ | A3/2- A/G/F/ G3/2- G/F/E/ | F3/2- F/E/^D/ E3/2- E/D/C/ | %352
 ^A/c/G/- G/F/=F/ ^F/c/F/- F/=F/^D/ | E/c/E/- E/D/C/ D/F/B/ d3/2- | d/G/B/ E3/2 E/C/E/ A3/2- | %355
 A/F/A/ D3/2- D/B,/D/ G3/2- | G/E/G<c- c/^A/c/ f z/ | z3/2 z B,/ ^A,/F,/A,/ C/=F/^F/ | %358
 B,/^G,/B,/ D/^E/F/ Cc/ ^A=F/ | Dd/ BF/ Ee/ c^A/ | B z/ ^A z/ d z/ cB/ | %361
 ^A/g/f/- f/B/A/- A/e/^d/- d/a/f/ | gG/ Be/ fF/ Bd/ | eg/ Bg/ df/ Bf/ | Ge/ ^Ac/ B/A/G/ c3/2- | %365
 c/^A/B/ D/E/C/ B,/D/F/- !fermata![FB] z/ |] %366
V:5
 z2 | B,CD^A, B,CDA, | B,E,F,F,, B,,2 z B, | B,^A, z =A, A,^G, z =G, | G,F,E,G, F,^G,^A,B, | %5
 B,,C,D,^A,, B,,C,D,A,, | B,,E,F,F,, B,,2 z/ B,/A,/B,/ | E,E,, z E,, A,,2 z/ A,/G,/A,/ | %8
 D,D,, z D,, G,,2 z B,, | E, z D, z ^A,, z2 F, | B,A,G,G,, F,,F,^A,F, | B,B,,B,,B,, E,,E,G,E, | %12
 A,A,,A,,A,, D,,D,C,D, | E,F,G,E, F,^G,^A,F, | B,G,E,F, B,,B,B,^A, | B,B,,A,,G,, F,,2 z2 | %16
 z/ B,/B,/^A,/ A,/B,/B,/A,/ A,2 z F, | B,>C B,/A,/G,/F,/ E,>^D, E,/F,/G,/E,/ | %18
 A,>B, A,/G,/F,/E,/ D,>C, D,/E,/F,/D,/ | G,G,,G,,G,, F,,E,D,F, | G,E,F,F,, B,,B,,,D,,F,, | %21
 B,,E,F,E, D,E,D,C, | B,,E,F,F,, B,,B,/C/ DB, | EE, z E,, A,,A,/B,/ CA, | %24
 DD, z D,, G,,G,/F,/ E,D, | C,E,F,E, D,E,D,C, | B,,D,E,G,- G,F,/G,/ A,2 | D z z2 z4 | %28
 B,G,A,A,, D,F,/E,/ F,D, | G,F,E,E,, A,,^G,,F,,F, | B,A,^G,F, G,C,^E,C, | F,F,, z B,, E,E,, z A,, | %32
 D,D,, z ^G,, C,B,,A,,G,, | F,,^G,,A,,E,, F,,G,,A,,E,, | F,,B,,C,C,, F,,2 z F, | %35
 ^F,/4^E,/4^F,/4^E,/4E, z =E, F,/4E,/4F,/4E,/4^D, z =D, | C,F,^A,F, B,E, D/4C/4B,/C/E/ | %37
 ^A,/F/F/B,/ B,/=A,/^G,/A,/ G,/^E/E/B,/ A,/^G,/F,/^E,/ | F,^G,A,=F, ^F,G,A,=F, | %39
 F,B,CC, F,^G,A,F, | B,/A,/^G,/F,/ G,B, E,/D,/C,/B,,/ C,E, | %41
 A,/G,/F,/E,/ F,A, D,/=C,/B,,/A,,/ B,,D, | G,F, G,/F,/E,/D,/ C,=C, (3B,,/^A,,/B,,/(3^C,/B,,/A,,/ | %43
 B,,/F,,/F,,/^E,,/ E,,/E,/E,/F,/ G,/B,,/B,,/A,,/ A,,/G,,/G,,/F,,/ | %44
 F,,/F,/F,/E,/ E,/D,/D,/C,/ C,2 z ^E, | F,^E,F,=F, =E,G,,A,,C, | D,C,D,G, C,E,F,^A, | %47
 B,^A,B,A, =A,=C,D,F, | G,F, G,/^G,/G,/A,/ A,/=G,/G,/F,/ G,/F,/F,/E,/ | %49
 F,/^G,/G,/^A,/ A,/B,/B,/A,/ B,=G,E,F, | ^G,/F,/F,/^E,/ E,/F,/F,/E,/ F,D,B,,C, | %51
 F,,/F,/F,/E,/ E,/D,/D,/C,/ C,/B,/B,/A,/ A,/^G,/G,/F,/ | %52
 F,/F/F/E/ E/D/D/C/ C/B,/B,/A,/ A,/^G,/G,/F,/ | F,^E,/^D,/ E,C, C,,E,/D,/ E,C, | %54
 C,,^E,/^D,/ E,C, A,,B,,C,C,, | F,,F,/^G,/ F,/E,/D,/C,/ B,,>A,, B,,/C,/D,/B,,/ | %56
 E,,E,/F,/ E,/D,/C,/B,,/ A,,>^G,, A,,/B,,/=C,/A,,/ | F,D,,D,,D,, C,,^G,A,C | DB,CC, F,F,,A,,C, | %59
 F,F,E,E, ^D,D,B,,B,, | E,E,D,D, C,C,A,,A,, | D,D,G,G, C,C,F,F, | B,,B,,E,E, A,,A,,D,D, | %63
 G,A,B,F, G,A,B,F, | G,=CDD, G,,A,,B,,=C, | D,D,=C,C, B,,B,,G,,G,, | =C,C,B,,B,, A,,A,,=F,,F,, | %67
 B,,B,,E,E, A,,A,,D,D, | G,,G,,=C,C, F,,F,,B,,B,, | E,F,G,^D, E,F,G,D, | E,A,,B,,B,, E,,2 z E, | %71
 A,G,F,E, D,=C,B,,A,, | G,F,E,D, =C,B,,A,,G,, | F,E,^D,C, B,,A,,G,,F,, | %74
 E,,B,,/C,/ ^D,B,, B,,,D,/C,/ D,B,, | B,,,^D,/C,/ D,B,, E,,E,/D,/ E,E,, | %76
 B,,, z/ B,/ B,/A,/A,/G,/ A,/G,/G,/F,/ G,/F,/F,/E,/ | %77
 F,/E,/E,/^D,/ E,/=D,/D,/C,/ D,/=C,/C,/B,,/ C,/B,,/B,,/A,,/ | %78
 B,,/A,,/A,,/^G,,/ A,,/=G,,/G,,/F,,/ G,,/F,,/F,,/G,,/ G,,/F,,/F,,/E,,/ | ^E,,4 F,,2 z B,, | %80
 B,CD^A, B,CDA, | B,E,F,F,, B,,2 z B, | C/4B,/4C/4B,/4^A, z =A, B,/4A,/4B,/4A,/4^G, z =G, | %83
 F,B,,^D,B,, E,A,/G,/ F,/E,/F,/A,/ | ^D,/B,/B,/E,/ E,/=D,/C,/D,/ C,/^A,/A,/E,/ D,/C,/B,,/^A,,/ | %85
 B,,C,D,^A,, B,,C,D,A,, | B,,E,F,F,, B,,C,D,B,, | E,/D,/C,/B,,/ C,E, A,/G,/F,/E,/ F,A, | %88
 D,/=C,/B,,/A,,/ B,,D, G,/=F,/E,/D,/ E,G, | =C,B,, C,/E,/A,/G,/ F,=F, (3E,/^D,/E,/(3^F,/E,/D,/ | %90
 E,/B,/B,/^A,/ A,/=A,/A,/B,/ =C/E,/E,/D,/ D,/=C,/C,/B,,/ | B,,/B,/B,/A,/ A,/G,/G,/F,/ F,2 z ^A, | %92
 B,^A,B,_B, =A,=C,D,F, | G,F,G,=C F,A,B,,^D, | E,^D,E,D, =D,=F,G,,B,, | %95
 =C,B,,C,^C, D,/=C,/C,/B,,/ C,/B,,/B,,/A,,/ | B,,/A,,/A,,/G,,/ A,,/E,/E,/^D,/ E,=C,A,,B,, | %97
 C,/B,/B,/^A,/ A,/B,/B,/A,/ B,G,E,F, | %98
 B,/B,,/B,,/A,,/ A,,/G,,/G,,/F,,/ F,,/E,/E,/D,/ D,/C,/C,/B,,/ | %99
 B,,/B,/B,/A,/ A,/G,/G,/F,/ F,/E/E/D/ D/C/C/B,/ | B,^A,/^G,/ A,F, F,,A,/G,/ A,F, | %101
 F,,^A,/^G,/ A,F, D,=G,/F,/ E,F, | B,, z E, z C, z F, z | D, z B,, z C, z C z | %104
 D z D, z D, z C, z | B,,B,=CB, A,F,B,,B, | EDCB, A,G,F,E, | DCB,A, G,F,E,D, | CB,^A,^G, F,E,D,C, | %109
 B,,2 z B,, E,2 z E, | A,,2 z A,, D,2 z D, | G,,G,,G,,G,, F,,F,D,F, | %112
 G,E,F,F,, G,,/G,/G,/F,/ F,/E,/E,/F,/ | F, z/ F/ F/E/E/D/ E/D/D/C/ D/=C/C/B,/ | %114
 =C/B,/B,/A,/ B,/A,/A,/G,/ A,/G,/G,/F,/ G,/F,/F,/E,/ | %115
 F,/E,/E,/D,/ E,/D,/D,/C,/ D,/C,/C,/B,,/ C,/B,,/B,,/^A,,/ | %116
 B,,/F,/B,/C/ B,/A,/G,/F,/ F,>^D, E,/F,/G,/E,/ | A,,/E,/A,/B,/ A,/G,/F,/E,/ D,>C, D,/E,/F,/D,/ | %118
 G,G,,G,,G,, F,,E,D,F, | G,E,F,F,, B,,3 z | z8 |[M:6/8] z2 D DEA, | EC z4 | F,A,D G,2 =C | %124
 F,B,B,, E,2 D, | C,E,G, A,,2 C, | D,B,,E, C,F,F,, | B,,F,A, ^G,DB, | C/A,/EE, A,,A,/B,/C/A,/ | %129
 z2 D DEA, | EC z4 | F,A,D G,2 =C | F,B,B,, E,2 D, | C,E,G, A,,2 C, | D,B,,E, C,F,F,, | %135
 B,,F,A, ^G,DB, | C/A,/EE, A,,3 | A,F,C, D,2 D | ECF F,3/2 z3/2 | E^A,B, G,E,C, | D,E,F, B,,B,C | %141
 DED C>A,E/G,/ | F,D,F, G,>F,E,/D,/ | A, z z A, z z | F,G,A, D,>E,F,/D,/ | A,F,C, D,2 D | %146
 ECF F,3/2 z3/2 | E^A,B, G,E,C, | D,E,F, B,,B,C | DED C>A,E/G,/ | F,D,F, G,>F,E,/D,/ | %151
 A, z z A, z z | F,G,A, D,3 | z6 |[M:2/2] z4 B,4 | ^A,4 D4 | C4 B,4- | B,4 ^A,4 | B,4 C4- | %159
 C4 D4- | D2 E2 F4 | B,4 B,,4 | F,4 F4- | F2 ^E2 F2 D2- | D2 ^E,2 F,2 D,2 | C,2 C2 A,2 F,2 | %166
 B,4 z2 ^G,2 | C4 z2 A,2 | D2 B,2 C2 C,2 | F,,2 F,2 E,2 D,2 | C,4 A,,4 | D,2 G,2 F,2 E,2 | %172
 F,4 F,,4 | B,,4 D,4 | C,2 G,2 F,2 B,,2 | ^A,,2 E,2 D,2 B,,2 | C,2 F,,2 z2 F,,2 | %177
 G,,2 ^D,2 E,2 ^G,,2 | A,,2 =F,2 ^F,2 ^A,,2 | B,,2 E,2 D,2 C,2 | B,,4 z2 B,2 | C4 z2 C,2 | %182
 D,4 z2 F,,2 | G,,4 z2 ^G,2 | A,^G,F,G, A,B,CA, | B,A,^G,A, B,CDB, | C2 ^E,2 F,2 ^G,2 | %187
 A,2 F,2 F4- | F2 ^E2 F2 D2- | D2 ^E,2 F,2 D,2 | C,2 B,,2 A,,2 F,,2 | B,,4 z2 ^G,,2 | C,4 z2 A,,2 | %193
 D,2 B,,2 C,4 | F,,2 F,2 D,2 C,2 | B,,2 A,,4 B,,C, | D,2 D2 C2 B,2 | ^A,2 F,4 ^G,A, | %198
 B,2 B,,2 A,,2 G,,2 | F,,2 D,,4 E,,F,, | G,,F,, E,,4 F,,G,, | A,,G,, F,,4 G,,A,, | %202
 B,,A,, G,,4 A,,B,, | =C,8 | B,,4 z4 | E,4 G,4 | F,2 =C2 B,2 E,2 | ^D,2 A,2 G,2 E,2 | %208
 F,2 B,,2 z2 B,,2 | =C,2 ^G,2 A,2 ^C,2 | D,2 ^A,2 B,2 ^D,2 | E,2 A,2 G,2 F,2 | E,4 z2 E,,2 | %213
 F,,4 z2 F,2 | G,4 z2 B,,2 | =C,4 z2 ^C,2 | D,C,B,,C, D,E,F,D, | E,D,C,D, E,F,G,E, | %218
 F,2 ^A,,2 B,,2 C,2 | D,2 B,,2 B,4- | B,2 ^A,2 B,2 G,2- | G,2 ^A,,2 B,,2 G,,2 | F,,2 E,2 D,2 B,,2 | %223
 E,4 z2 C,2 | F,4 z2 D,2 | G,2 E,2 F,2 F,,2 | B,,2 B,2 A,2 G,2 | F,2 D,4 E,F, | G,,2 G,2 F,2 E,2 | %229
 ^D,2 B,,4 C,D, | E,,2 D,2 C,2 B,,2 | ^A,,2 F,^G, ^A,B,CA, | B,2 B,,4 C,D, | E,D, C,4 D,E, | %234
 F,E, D,4 E,F, | %235
 A,/4G,/4A,/4G,/4A,/4G,/4A,/4G,/4 A,/4G,/4A,/4G,/4A,/4G,/4A,/4G,/4 A,/4G,/4A,/4G,/4A,/4G,/4A,/4G,/4 A,/4G,/4A,/4G,/4A,/4G,/4A,/4G,/4 | %236
 !fermata!F,8 |[M:1/16] z/ |[M:12/16] B, z/ ^A, z/ B, z/ B,, z/ | C, z/ C z/ D z/ B, z/ | %240
 E, z/ D, z/ G, z/ F, z/ | E, z/ C, z/ F, z/ ^A, z/ | B, z/ F, z/ B,,D,/ F,B,/ | %243
 C,E,/ ^A,C/ D,F,/ B,D/ | E, z/ D, z/ G, z/ F, z/ | G, z/ G,, z/ F,, z/ ^A,, z/ | %246
 B,, z/ D, z/ E, z/ G, z/ | A,, z/ C, z/ D, z/ F, z/ | G,3/2- G,/F,/E,/ F,3/2- F,/E,/D,/ | %249
 B,3/2- B,/A,/G,/ A,3/2- A,/G,/F,/ | G, z/ E, z/ A, z/ C z/ | DF,/ A,A,,/ D,3/2- D,/A,,/D,/ | %252
 F, z/ D, z/ G,,3/2- G,,/G,/F,/ | ^G, z/ E, z/ A,,3/2- A,,/A,/G,/ | %254
 ^A, z/ F, z/ B,,3/2- B,,/B,/A,/ | B,3/2- B,B,,/ B,3/2- B,/A,/^G,/ | A, z/ ^E, z/ F, z/ F,, z/ | %257
 ^G,, z/ C, z/ A,, z/ F,, z/ | B,, z/ A,, z/ E, z/ C, z/ | B,, z/ ^G,, z/ C, z/ ^E, z/ | %260
 F, z/ C, z/ F,, z z/ F,/ | ^G,B,/ ^E,G,/ A, z/ F, z/ | B, z/ C z/ D z/ C z/ | %263
 B, z/ D z/ C z/ ^E, z/ | F, z/ A, z/ B, z/ D, z/ | E, z/ ^G, z/ A,E,/ C3/2- | %266
 C/B,/A,/ B,/A,/^G,/ A,3/2- A,/G,/F,/ | D3/2- D/C/B,/ C3/2- C/B,/A,/ | B, z/ z ^B,/ C z/ z ^E,/ | %269
 F,A,,/ C,C,,/ F,,3/2- F,, z/ | B, z/ ^A, z/ B, z/ B,, z/ | C, z/ C z/ D z/ B, z/ | %272
 E, z/ D, z/ G, z/ F, z/ | E, z/ C, z/ F, z/ ^A, z/ | B, z/ F, z/ B,,D,/ F,B,/ | %275
 C,E,/ ^A,C/ D,F,/ B,D/ | E, z/ D, z/ G, z/ F, z/ | G, z/ G,, z/ F,, z/ ^A,, z/ | %278
 B,, z/ D, z/ E, z/ G, z/ | A,, z/ C, z/ D, z/ F, z/ | G,3/2- G,/F,/E,/ F,3/2- F,/E,/D,/ | %281
 B,3/2- B,/A,/G,/ A,3/2- A,/G,/F,/ | G, z/ E, z/ A, z/ C z/ | DF,/ A,A,,/ D,3/2- D,/A,,/D,/ | %284
 F, z/ D, z/ G,,3/2- G,,/G,/F,/ | ^G, z/ E, z/ A,,3/2- A,,/A,/G,/ | %286
 ^A, z/ F, z/ B,,3/2- B,,/B,/A,/ | B,3/2- B,B,,/ B,3/2- B,/A,/^G,/ | A, z/ ^E, z/ F, z/ F,, z/ | %289
 ^G,, z/ C, z/ A,, z/ F,, z/ | B,, z/ A,, z/ E, z/ C, z/ | B,, z/ ^G,, z/ C, z/ ^E, z/ | %292
 F, z/ C, z/ F,, z z/ F,/ | ^G,B,/ ^E,G,/ A, z/ F, z/ | B, z/ C z/ D z/ C z/ | %295
 B, z/ D z/ C z/ ^E, z/ | F, z/ A, z/ B, z/ D, z/ | E, z/ ^G, z/ A,E,/ C3/2- | %298
 C/B,/A,/ B,/A,/^G,/ A,3/2- A,/G,/F,/ | D3/2- D/C/B,/ C3/2- C/B,/A,/ | B, z/ z ^B,/ C z/ z ^E,/ | %301
 F,A,,/ C,C,,/ F,,3/2- F,, z/ | F,/^A,/C/ F, z/ F,/A,/B,/ F, z/ | F,/^A,/C/ F,F,,/ B,, z/ z3/2 | %304
 B,,/^D,/F,/ B,, z/ B,,/D,/E,/ B,, z/ | B,,/^D,/F,/ B,,B,/ E,F,/ G,E,/ | A, z/ B, z/ =C z/ ^D, z/ | %307
 E, z/ =C, z/ F, z/ A,/G,/F,/ | G, z/ ^D, z/ E, z/ E,, z/ | F,, z/ F, z/ G, z/ ^G, z/ | %310
 A, z/ E, z/ =C, z/ D, z/ | G, z/ D, z/ B,,G,/ A,B,/ | =C, z/ D, z/ E, z/ F, z/ | %313
 G,, z/ A,, z/ B,,/D,/F,/ A,/F,/F,/ | E, z/ F, z/ G, z/ G,, z/ | A,, z/ A, z/ B, z/ G, z/ | %316
 =C z/ G, z/ A, z/ E, z/ | F, z/ G, z/ ^A,,C,/ A,,F,,/ | B,,/^D,/F,/ B,, z/ B,,/D,/E,/ B,, z/ | %319
 B,,/^D,/F,/ B,B,,/ E,=D,/ C,E,/ | F,/^A,/C/ F, z/ F,/A,/B,/ F, z/ | %321
 F,/^A,/C/ F,F,,/ B,,A,,/ G,,F,,/ | E,, z/ G,, z/ A,, z/ C, z/ | D,, z/ F,, z/ G,, z/ B,, z/ | %324
 C, z/ E, z/ F,F,,/ ^A,,C,/ | D,F,,/ B,,D,/ F,3/2- F,/C,/A,,/ | %326
 F,,3/2- F,,/B,,/D,/ F,/^E,/F,/ F,,/^A,,/C,/ | F,/^E,/F,/ F,,/B,,/D,/ F,/E,/F,/ F,,/^A,,/C,/ | %328
 F,/^E,/F,/ F,,/^A,,/C,/ F,/E,/F,/ F,,/A,,/C,/ | F,/^E,/F,/ F,,/B,,/D,/ F,/=E,/F,/ F,,/B,,/^D,/ | %330
 G,->G,F,/E,/ F,->F,E,/D,/ | G,3/2- G,/F,/E,/ F,3/2- F,/E,/D,/ | E, z/ C, z/ F, z/ ^A,, z/ | %333
 B,,D,/ F,F,,/ B,,/F,,/D,,/ !fermata!B,,, z/ | F,/^A,/C/ F, z/ F,/A,/B,/ F, z/ | %335
 F,/^A,/C/ F,F,,/ B,, z/ z3/2 | B,,/^D,/F,/ B,, z/ B,,/D,/E,/ B,, z/ | %337
 B,,/^D,/F,/ B,,B,/ E,F,/ G,E,/ | A, z/ B, z/ =C z/ ^D, z/ | E, z/ =C, z/ F, z/ A,/G,/F,/ | %340
 G, z/ ^D, z/ E, z/ E,, z/ | F,, z/ F, z/ G, z/ ^G, z/ | A, z/ E, z/ =C, z/ D, z/ | %343
 G, z/ D, z/ B,,G,/ A,B,/ | =C, z/ D, z/ E, z/ F, z/ | G,, z/ A,, z/ B,,/D,/F,/ A,/F,/F,/ | %346
 E, z/ F, z/ G, z/ G,, z/ | A,, z/ A, z/ B, z/ G, z/ | =C z/ G, z/ A, z/ E, z/ | %349
 F, z/ G, z/ ^A,,C,/ A,,F,,/ | B,,/^D,/F,/ B,, z/ B,,/D,/E,/ B,, z/ | %351
 B,,/^D,/F,/ B,B,,/ E,=D,/ C,E,/ | F,/^A,/C/ F, z/ F,/A,/B,/ F, z/ | %353
 F,/^A,/C/ F,F,,/ B,,A,,/ G,,F,,/ | E,, z/ G,, z/ A,, z/ C, z/ | D,, z/ F,, z/ G,, z/ B,, z/ | %356
 C, z/ E, z/ F,F,,/ ^A,,C,/ | D,F,,/ B,,D,/ F,3/2- F,/C,/A,,/ | %358
 F,,3/2- F,,/B,,/D,/ F,/^E,/F,/ F,,/^A,,/C,/ | F,/^E,/F,/ F,,/B,,/D,/ F,/E,/F,/ F,,/^A,,/C,/ | %360
 F,/^E,/F,/ F,,/^A,,/C,/ F,/E,/F,/ F,,/A,,/C,/ | F,/^E,/F,/ F,,/B,,/D,/ F,/=E,/F,/ F,,/B,,/^D,/ | %362
 G,->G,F,/E,/ F,->F,E,/D,/ | G,3/2- G,/F,/E,/ F,3/2- F,/E,/D,/ | E, z/ C, z/ F, z/ ^A,, z/ | %365
 B,,D,/ F,F,,/ B,,/F,,/D,,/ !fermata!B,,, z/ |] %366
V:6
 x2 | x8 | x8 | x8 | x8 | x8 | x8 | x8 | x8 | x8 | x8 | x8 | x8 | x8 | z4 z/ D/D/C/ C/E/E/D/ | %15
 C/ z4 B,/B,/^A,/ A,/D/D/C/ | C z4 z2 z | x8 | x8 | x8 | x8 | B, z C z z/ D/D/C/ D z | %22
 z GCF z/ F/B/^A/ B z | z FGE z/ E/A/^G/ A z | z EDA, z/ D/E/F/ G z | z GF^A AFc z | %26
 z dBB A/C/D- DC | x8 | x8 | x8 | x8 | x8 | x8 | x8 | x8 | x8 | x8 | x8 | x8 | x8 | x8 | x8 | x8 | %43
 x8 | x8 | x8 | x8 | x8 | x8 | x8 | x8 | x8 | x8 | x8 | x8 | x8 | x8 | x8 | x8 | z FcF z B,FB, | %60
 z EBE z A,EA, | z AGF z GFE | z BGE z EFA, | x8 | x8 | (3D z z z4 z2 | x8 | x8 | x8 | x8 | x8 | %71
 x8 | x8 | x8 | x8 | x8 | x8 | x8 | x8 | x8 | x8 | x8 | x8 | x8 | x8 | x8 | x8 | x8 | x8 | x8 | %90
 x8 | x8 | x8 | x8 | x8 | x8 | x8 | x8 | x8 | x8 | x8 | x8 | x8 | x8 | x8 | x8 | x8 | x8 | x8 | %109
 x8 | x8 | x8 | x8 | x8 | x8 | x8 | x8 | x8 | x8 | x8 | x8 |[M:6/8] FFA GAD | GE[EA] [FA] z z | %123
 [DFA][FA=c][FA^c] [FAc][GB] z | [A=c][FB][FB] [GB] z z | EEE AG [EG] | DDE EFA | FFD EEE | %128
 [EA][EA][E^G] [EA]3 | FFA GAD | GE[EA] [FA] z z | [DFA][FA=c][FA^c] [FAc][GB] z | %132
 [A=c][FB][FB] [GB] z z | EEE AG [EG] | DDE EFA | FFD EEE | [EA][EA][E^G] [EA]3 | %137
 E[FA]G G/E/F/ z/ z | ^A/B/c[ce] ed/ z3/2 | z/ e3/2d [Bd][G=c][E=G^A^c] | FEE [DF]/ z/ z2 | %141
 [e^gb][eg][Be] [de][Aca] z | AAF F/D[I:staff +1]D/^C/C/ |[I:staff -1] AGE EEC | FEE F3 | %145
 E[FA]G G/E/F/ z/ z | ^A/B/c[ce] ed/ z3/2 | z/ e3/2d [Bd][G=c][E=G^A^c] | FEE [DF]/ z/ z2 | %149
 [e^gb][eg][Be] [de][Aca] z | AAF F/D[I:staff +1]D/^C/C/ |[I:staff -1] AGE EEC | FEE F3 | x6 | %154
[M:2/2] x8 | x8 | x8 | x8 | x8 | x8 | x8 | x8 | x8 | x8 | x8 | x8 | x8 | x8 | x8 | x8 | x8 | x8 | %172
 x8 | x8 | x8 | x8 | x8 | x8 | x8 | x8 | x8 | x8 | x8 | x8 | x8 | x8 | x8 | x8 | x8 | x8 | x8 | %191
 x8 | x8 | x8 | x8 | x8 | x8 | x8 | x8 | x8 | x8 | x8 | x8 | x8 | x8 | x8 | x8 | x8 | x8 | z8 | %210
 x8 | x8 | x8 | x8 | x8 | x8 | x8 | x8 | x8 | x8 | x8 | x8 | x8 | x8 | x8 | x8 | x8 | x8 | x8 | %229
 x8 | x8 | x8 | x8 | x8 | x8 | x8 | x8 |[M:1/16] x/ |[M:12/16] x6 | x6 | x6 | x6 | x6 | x6 | x6 | %245
 x6 | x6 | x6 | x6 | x6 | x6 | x6 | x6 | x6 | x6 | x6 | x6 | x6 | x6 | x6 | x6 | x6 | x6 | x6 | %264
 x6 | x6 | x6 | x6 | x6 | z3 F/C-<C z/ | x6 | x6 | x6 | x6 | x6 | x6 | x6 | x6 | x6 | x6 | x6 | %281
 x6 | x6 | x6 | x6 | x6 | x6 | x6 | x6 | x6 | x6 | x6 | x6 | x6 | x6 | x6 | x6 | x6 | x6 | x6 | %300
 x6 | z3 F/C-<C z/ | x6 | x6 | x6 | z3 z3/2 z [GB]/ | A z/ GF/ E z/ B, z/ | B, z/ =C z/ z3 | x6 | %309
 x6 | x6 | x6 | x6 | x6 | x6 | x6 | x6 | x6 | x6 | x6 | x6 | x6 | x6 | x6 | x6 | x6 | x6 | x6 | %328
 x6 | x6 | x6 | x6 | x6 | z3 z/ D- D z/ | x6 | x6 | x6 | z3 z3/2 z [GB]/ | A z/ GF/ E z/ B, z/ | %339
 B, z/ =C z/ z3 | x6 | x6 | x6 | x6 | x6 | x6 | x6 | x6 | x6 | x6 | x6 | x6 | x6 | x6 | x6 | x6 | %356
 x6 | x6 | x6 | x6 | x6 | x6 | x6 | x6 | x6 | z3 z/ D- D z/ |] %366
V:7
 x2 | x8 | x8 | x8 | x8 | x8 | x8 | x8 | x8 | x8 | x8 | x8 | x8 | x8 | x8 | x8 | x8 | x8 | x8 | %19
 x8 | x8 | x8 | x8 | x8 | x8 | x8 | x8 | D,G,A,^A, B,CDC | x8 | x8 | x8 | x8 | x8 | x8 | x8 | x8 | %36
 x8 | x8 | x8 | x8 | x8 | x8 | x8 | x8 | x8 | x8 | x8 | x8 | x8 | x8 | x8 | x8 | x8 | x8 | x8 | %55
 x8 | x8 | x8 | x8 | x8 | x8 | x8 | x8 | G,, z z2 z4 | x8 | x8 | x8 | x8 | x8 | x8 | x8 | x8 | x8 | %73
 x8 | x8 | x8 | x8 | x8 | x8 | x8 | x8 | x8 | x8 | x8 | x8 | x8 | x8 | x8 | x8 | x8 | x8 | x8 | %92
 x8 | x8 | x8 | x8 | x8 | x8 | x8 | x8 | x8 | x8 | x8 | x8 | x8 | x8 | x8 | x8 | x8 | x8 | x8 | %111
 x8 | x8 | x8 | x8 | x8 | x8 | x8 | x8 | x8 | x8 |[M:6/8] DB,F, G,2 F, | E,A,A,, D,2 E, | x6 | x6 | %125
 x6 | x6 | x6 | x6 | DB,F, G,2 F, | E,A,A,, D,2 E, | x6 | x6 | x6 | x6 | x6 | x6 | x6 | %138
 C^A,F, B,>B,C/D/ | x6 | x6 | x6 | x6 | C,E,G, A,,C,E, | F,,G,,A,, D,,3/2 z3/2 | z6 | %146
 C^A,F, B,>B,C/D/ | x6 | x6 | x6 | x6 | C,E,G, A,,C,E, | F,,G,,A,, D,,3 | x6 |[M:2/2] x8 | x8 | %156
 x8 | x8 | x8 | x8 | x8 | x8 | x8 | x8 | x8 | x8 | x8 | x8 | x8 | x8 | x8 | x8 | x8 | x8 | x8 | %175
 x8 | x8 | x8 | x8 | x8 | x8 | x8 | x8 | x8 | x8 | x8 | x8 | x8 | x8 | x8 | x8 | x8 | x8 | x8 | %194
 x8 | x8 | x8 | x8 | x8 | x8 | x8 | x8 | x8 | x8 | x8 | x8 | x8 | x8 | x8 | x8 | x8 | x8 | x8 | %213
 x8 | x8 | x8 | x8 | x8 | x8 | x8 | x8 | x8 | x8 | x8 | x8 | x8 | x8 | x8 | x8 | x8 | x8 | x8 | %232
 x8 | x8 | x8 | x8 | x8 |[M:1/16] x/ |[M:12/16] x6 | x6 | x6 | x6 | x6 | x6 | x6 | x6 | x6 | x6 | %248
 x6 | x6 | x6 | x6 | x6 | x6 | x6 | x6 | x6 | x6 | x6 | x6 | x6 | x6 | x6 | x6 | x6 | x6 | x6 | %267
 x6 | x6 | x6 | x6 | x6 | x6 | x6 | x6 | x6 | x6 | x6 | x6 | x6 | x6 | x6 | x6 | x6 | x6 | x6 | %286
 x6 | x6 | x6 | x6 | x6 | x6 | x6 | x6 | x6 | x6 | x6 | x6 | x6 | x6 | x6 | x6 | x6 | x6 | x6 | %305
 x6 | x6 | z3 B,,/^D,/F,/ z3/2 | x6 | x6 | x6 | x6 | x6 | x6 | x6 | x6 | x6 | x6 | x6 | x6 | x6 | %321
 x6 | x6 | x6 | x6 | x6 | x6 | x6 | x6 | x6 | x6 | x6 | x6 | x6 | x6 | x6 | x6 | x6 | x6 | %339
 z3 B,,/^D,/F,/ z3/2 | x6 | x6 | x6 | x6 | x6 | x6 | x6 | x6 | x6 | x6 | x6 | x6 | x6 | x6 | x6 | %355
 x6 | x6 | x6 | x6 | x6 | x6 | x6 | x6 | x6 | x6 | x11/2 z/ |] %366
V:8
 x2 | x8 | x8 | x8 | x8 | x8 | x8 | x8 | x8 | x8 | x8 | x8 | x8 | x8 | x8 | x8 | x8 | x8 | x8 | %19
 x8 | x8 | x8 | x8 | x8 | x8 | x8 | x8 | x8 | x8 | x8 | x8 | x8 | x8 | x8 | x8 | x8 | x8 | x8 | %38
 x8 | x8 | x8 | x8 | x8 | x8 | x8 | x8 | x8 | x8 | x8 | x8 | x8 | x8 | x8 | x8 | x8 | x8 | x8 | %57
 x8 | x8 | x8 | x8 | x8 | x8 | x8 | x8 | x8 | x8 | x8 | x8 | x8 | x8 | x8 | x8 | x8 | x8 | x8 | %76
 x8 | x8 | x8 | x8 | x8 | x8 | x8 | x8 | x8 | x8 | x8 | x8 | x8 | x8 | x8 | x8 | x8 | x8 | x8 | %95
 x8 | x8 | x8 | x8 | x8 | x8 | x8 | x8 | x8 | x8 | x8 | x8 | x8 | x8 | x8 | x8 | x8 | x8 | x8 | %114
 x8 | x8 | x8 | x8 | x8 | x8 | x8 |[M:6/8] x6 | x6 | x6 | x6 | z3 E2 z | x6 | x6 | x6 | x6 | x6 | %131
 x6 | x6 | z3 E2 z | x6 | x6 | x6 | z3 A z2 | z3 B z2 | z cB z3 | z GF z3 | x6 | %142
 x3 z B/4^c/4d/4c/4 e/4d/4f/4e/4 | x6 | x6 | z3 A z2 | z x2 B z2 | z cB z3 | z GF z3 | x6 | %150
 x3 z B/4^c/4d/4c/4 e/4d/4f/4e/4 | x6 | x6 | x6 |[M:2/2] x8 | x8 | x8 | x8 | x8 | x8 | x8 | x8 | %162
 x8 | x8 | x8 | x8 | x8 | x8 | x8 | x8 | x8 | x8 | x8 | x8 | x8 | x8 | x8 | x8 | x8 | x8 | x8 | %181
 x8 | x8 | x8 | x8 | x8 | x8 | x8 | x8 | x8 | x8 | x8 | x8 | x8 | x8 | x8 | x8 | x8 | x8 | x8 | %200
 x8 | x8 | x8 | x8 | x8 | x8 | x8 | x8 | x8 | x8 | x8 | x8 | x8 | x8 | x8 | x8 | x8 | x8 | x8 | %219
 x8 | x8 | x8 | x8 | x8 | x8 | x8 | x8 | x8 | x8 | x8 | x8 | x8 | x8 | x8 | x8 | x8 | x8 | %237
[M:1/16] x/ |[M:12/16] x6 | x6 | x6 | x6 | x6 | x6 | x6 | x6 | x6 | x6 | x6 | x6 | x6 | x6 | x6 | %253
 x6 | x6 | x6 | x6 | x6 | x6 | x6 | x6 | x6 | x6 | x6 | x6 | x6 | x6 | x6 | x6 | z3 z A,/-A, z/ | %270
 x6 | x6 | x6 | x6 | x6 | x6 | x6 | x6 | x6 | x6 | x6 | x6 | x6 | x6 | x6 | x6 | x6 | x6 | x6 | %289
 x6 | x6 | x6 | x6 | x6 | x6 | x6 | x6 | x6 | x6 | x6 | x6 | z3 z A,/-A, z/ | x6 | x6 | x6 | x6 | %306
 x6 | x6 | x6 | x6 | x6 | x6 | x6 | x6 | x6 | x6 | x6 | x6 | x6 | x6 | x6 | x6 | x6 | x6 | x6 | %325
 x6 | x6 | x6 | x6 | x6 | x6 | x6 | x6 | x11/2 z/ | x6 | x6 | x6 | x6 | x6 | x6 | x6 | x6 | x6 | %343
 x6 | x6 | x6 | x6 | x6 | x6 | x6 | x6 | x6 | x6 | x6 | x6 | x6 | x6 | x6 | x6 | x6 | x6 | x6 | %362
 x6 | x6 | x6 | x6 |] %366
V:9
 x2 | x8 | x8 | x8 | x8 | x8 | x8 | x8 | x8 | x8 | x8 | x8 | x8 | x8 | x8 | x8 | x8 | x8 | x8 | %19
 x8 | x8 | x8 | x8 | x8 | x8 | x8 | x8 | x8 | x8 | x8 | x8 | x8 | x8 | x8 | x8 | x8 | x8 | x8 | %38
 x8 | x8 | x8 | x8 | x8 | x8 | x8 | x8 | x8 | x8 | x8 | x8 | x8 | x8 | x8 | x8 | x8 | x8 | x8 | %57
 x8 | x8 | x8 | x8 | x8 | x8 | x8 | x8 | x8 | x8 | x8 | x8 | x8 | x8 | x8 | x8 | x8 | x8 | x8 | %76
 x8 | x8 | x8 | x8 | x8 | x8 | x8 | x8 | x8 | x8 | x8 | x8 | x8 | x8 | x8 | x8 | x8 | x8 | x8 | %95
 x8 | x8 | x8 | x8 | x8 | x8 | x8 | x8 | x8 | x8 | x8 | x8 | x8 | x8 | x8 | x8 | x8 | x8 | x8 | %114
 x8 | x8 | x8 | x8 | x8 | x8 | x8 |[M:6/8] x6 | x6 | x6 | x6 | x6 | x6 | x6 | x6 | x6 | x6 | x6 | %132
 x6 | x6 | x6 | x6 | x6 | x6 | x6 | x6 | x6 | x6 | x6 | x6 | x6 | x6 | x6 | x6 | x6 | x6 | x6 | %151
 x6 | x6 | x6 |[M:2/2] x8 | x8 | x8 | x8 | x8 | x8 | x8 | x8 | x8 | x8 | x8 | x8 | x8 | x8 | x8 | %169
 x8 | x8 | x8 | x8 | x8 | x8 | x8 | x8 | x8 | x8 | x8 | x8 | x8 | x8 | x8 | x8 | x8 | x8 | x8 | %188
 x8 | x8 | x8 | x8 | x8 | x8 | x8 | x8 | x8 | x8 | x8 | x8 | x8 | x8 | x8 | x8 | x8 | x8 | x8 | %207
 x8 | x8 | x8 | x8 | x8 | x8 | x8 | x8 | x8 | x8 | x8 | x8 | x8 | x8 | x8 | x8 | x8 | x8 | x8 | %226
 x8 | x8 | x8 | x8 | x8 | x8 | x8 | x8 | x8 | x8 | x8 |[M:1/16] x/ |[M:12/16] x6 | x6 | x6 | x6 | %242
 x6 | x6 | x6 | x6 | x6 | x6 | x6 | x6 | x6 | x6 | x6 | x6 | x6 | x6 | x6 | x6 | x6 | x6 | x6 | %261
 x6 | x6 | x6 | x6 | x6 | x6 | x6 | x6 | z3 z3/2 F, z/ | x6 | x6 | x6 | x6 | x6 | x6 | x6 | x6 | %278
 x6 | x6 | x6 | x6 | x6 | x6 | x6 | x6 | x6 | x6 | x6 | x6 | x6 | x6 | x6 | x6 | x6 | x6 | x6 | %297
 x6 | x6 | x6 | x6 | z3 z3/2 F, z/ | x6 | x6 | x6 | x6 | x6 | x6 | x6 | x6 | x6 | x6 | x6 | x6 | %314
 x6 | x6 | x6 | x6 | x6 | x6 | x6 | x6 | x6 | x6 | x6 | x6 | x6 | x6 | x6 | x6 | x6 | x6 | x6 | %333
 x11/2 z/ | x6 | x6 | x6 | x6 | x6 | x6 | x6 | x6 | x6 | x6 | x6 | x6 | x6 | x6 | x6 | x6 | x6 | %351
 x6 | x6 | x6 | x6 | x6 | x6 | x6 | x6 | x6 | x6 | x6 | x6 | x6 | x6 | x6 |] %366

